; generated by PrusaSlicer 2.5.0+win64 on 2022-12-21 at 23:06:09 UTC

; 

; external perimeters extrusion width = 0.42mm
; perimeters extrusion width = 0.44mm
; infill extrusion width = 0.44mm
; solid infill extrusion width = 0.44mm
; top infill extrusion width = 0.40mm
; first layer extrusion width = 0.42mm

M107
M190 S90 ; set bed temperature and wait for it to be reached
M104 S245 ; set temperature
;TYPE:Custom
G28 ; home all axes
G1 Z5 F5000 ; lift nozzle
M109 S245 ; set temperature and wait for it to be reached
G21 ; set units to millimeters
G90 ; use absolute coordinates
M82 ; use absolute distances for extrusion
G92 E0
; Filament gcode
M107
;LAYER_CHANGE
;Z:0.2
;HEIGHT:0.2
G1 Z.2 F9000
G1 E-2 F2400
G92 E0
G1 X58.962 Y49.102 F9000
G1 E2 F2400
M204 S500
;TYPE:Skirt/Brim
;WIDTH:0.42
G1 F1200
G1 X60.052 Y47.888 E2.05115
G1 X61.945 Y47.308 E2.11323
G1 X238.055 Y47.308 E7.63503
G1 X239.638 Y47.702 E7.68618
G1 X240.852 Y48.792 E7.73734
G1 X241.432 Y50.685 E7.79941
G1 X241.432 Y149.315 E10.89188
G1 X241.038 Y150.898 E10.94304
G1 X239.948 Y152.112 E10.99419
G1 X238.055 Y152.692 E11.05626
G1 X61.945 Y152.692 E16.57807
G1 X60.362 Y152.298 E16.62922
G1 X59.148 Y151.208 E16.68037
G1 X58.568 Y149.315 E16.74245
G1 X58.568 Y50.685 E19.83492
G1 X58.948 Y49.16 E19.88419
; printing object Case_Base.stl id:0 copy 0
G1 E17.88419 F2400
G92 E0
G1 X63.009 Y51.749 F9000
G1 E2 F2400
;TYPE:Perimeter
;WIDTH:0.419999
G1 F1200
G1 X236.991 Y51.749 E7.45506
G1 X236.991 Y148.251 E10.4808
G1 X63.009 Y148.251 E15.93587
G1 X63.009 Y51.809 E18.95972
G1 X62.632 Y51.372 F9000
G1 F1200
G1 X237.368 Y51.372 E24.43843
G1 X237.368 Y148.628 E27.48782
G1 X62.632 Y148.628 E32.96653
G1 X62.632 Y51.432 E36.01403
G1 X62.255 Y50.995 F9000
;TYPE:External perimeter
G1 F1200
G1 X237.745 Y50.995 E41.51639
G1 X237.745 Y149.005 E44.58942
G1 X62.255 Y149.005 E50.09177
G1 X62.255 Y51.055 E53.16292
G1 X62.649 Y51.063 F9000
G1 E51.16292 F2400
G92 E0
G1 X236.107 Y51.87 F9000
G1 E2 F2400
;TYPE:Solid infill
;WIDTH:0.420336
G1 F1200
G1 X236.701 Y52.463 E2.02633
G1 X236.701 Y52.997 E2.04308
G1 X235.743 Y52.039 E2.08557
G1 X235.209 Y52.039 E2.10232
G1 X236.701 Y53.531 E2.1685
G1 X236.701 Y54.064 E2.18525
G1 X234.676 Y52.039 E2.27511
G1 X234.142 Y52.039 E2.29186
G1 X236.701 Y54.598 E2.40542
G1 X236.701 Y55.132 E2.42217
G1 X233.608 Y52.039 E2.55941
G1 X233.074 Y52.039 E2.57616
G1 X236.701 Y55.666 E2.73709
G1 X236.701 Y56.199 E2.75384
G1 X232.541 Y52.039 E2.93846
G1 X232.007 Y52.039 E2.95521
G1 X236.701 Y56.733 E3.16352
G1 X236.701 Y57.267 E3.18027
G1 X231.473 Y52.039 E3.41226
G1 X230.939 Y52.039 E3.42901
G1 X236.701 Y57.801 E3.6847
G1 X236.701 Y58.334 E3.70145
G1 X230.406 Y52.039 E3.98082
G1 X229.872 Y52.039 E3.99757
G1 X236.701 Y58.868 E4.30063
G1 X236.701 Y59.402 E4.31738
G1 X229.338 Y52.039 E4.64413
G1 X228.804 Y52.039 E4.66088
G1 X236.701 Y59.936 E5.01132
G1 X236.701 Y60.469 E5.02807
G1 X228.271 Y52.039 E5.40219
G1 X227.737 Y52.039 E5.41894
G1 X236.701 Y61.003 E5.81676
G1 X236.701 Y61.537 E5.83351
G1 X227.203 Y52.039 E6.25501
G1 X226.669 Y52.039 E6.27176
G1 X236.701 Y62.071 E6.71695
G1 X236.701 Y62.604 E6.7337
G1 X226.136 Y52.039 E7.20258
G1 X225.602 Y52.039 E7.21933
G1 X236.701 Y63.138 E7.7119
G1 X236.701 Y63.672 E7.72865
G1 X225.068 Y52.039 E8.2449
G1 X224.534 Y52.039 E8.26165
G1 X236.701 Y64.206 E8.8016
G1 X236.701 Y64.739 E8.81835
G1 X224.001 Y52.039 E9.38198
G1 X223.467 Y52.039 E9.39873
G1 X236.701 Y65.273 E9.98605
G1 X236.701 Y65.807 E10.0028
G1 X222.933 Y52.039 E10.61381
G1 X222.399 Y52.039 E10.63056
G1 X236.701 Y66.341 E11.26526
G1 X236.701 Y66.874 E11.28201
G1 X221.866 Y52.039 E11.94039
G1 X221.332 Y52.039 E11.95714
G1 X236.701 Y67.408 E12.63922
G1 X236.701 Y67.942 E12.65597
G1 X220.798 Y52.039 E13.36173
G1 X220.264 Y52.039 E13.37848
G1 X236.701 Y68.476 E14.10793
G1 X236.701 Y69.009 E14.12468
G1 X219.731 Y52.039 E14.87782
G1 X219.197 Y52.039 E14.89457
G1 X236.701 Y69.543 E15.6714
G1 X236.701 Y70.077 E15.68815
G1 X218.663 Y52.039 E16.48866
G1 X218.129 Y52.039 E16.50541
G1 X236.701 Y70.611 E17.32962
G1 X236.701 Y71.144 E17.34637
G1 X217.596 Y52.039 E18.19426
G1 X217.062 Y52.039 E18.21101
G1 X236.701 Y71.678 E19.08259
G1 X236.701 Y72.212 E19.09934
G1 X216.528 Y52.039 E19.99461
G1 X215.995 Y52.039 E20.01136
G1 X236.701 Y72.745 E20.93032
G1 X236.701 Y73.279 E20.94707
G1 X215.461 Y52.039 E21.88971
G1 X214.927 Y52.039 E21.90646
G1 X236.701 Y73.813 E22.8728
G1 X236.701 Y74.347 E22.88955
G1 X214.393 Y52.039 E23.87957
G1 X213.86 Y52.039 E23.89632
G1 X236.701 Y74.88 E24.91003
G1 X236.701 Y75.414 E24.92678
G1 X213.326 Y52.039 E25.96418
G1 X212.792 Y52.039 E25.98093
G1 X236.701 Y75.948 E27.04202
G1 X236.701 Y76.482 E27.05877
G1 X212.258 Y52.039 E28.14354
G1 X211.725 Y52.039 E28.16029
G1 X236.701 Y77.015 E29.26876
G1 X236.701 Y77.549 E29.28551
G1 X211.191 Y52.039 E30.41766
G1 X210.657 Y52.039 E30.43441
G1 X236.701 Y78.083 E31.59025
G1 X236.701 Y78.617 E31.607
G1 X210.123 Y52.039 E32.78653
G1 X209.59 Y52.039 E32.80328
G1 X236.701 Y79.15 E34.0065
G1 X236.701 Y79.684 E34.02325
G1 X209.056 Y52.039 E35.25016
G1 X208.522 Y52.039 E35.26691
G1 X236.701 Y80.218 E36.5175
G1 X236.701 Y80.752 E36.53425
G1 X207.988 Y52.039 E37.80853
G1 X207.455 Y52.039 E37.82528
G1 X236.701 Y81.285 E39.12325
G1 X236.701 Y81.819 E39.14
G1 X206.921 Y52.039 E40.46166
G1 X206.387 Y52.039 E40.47841
G1 X236.701 Y82.353 E41.82376
G1 X236.701 Y82.887 E41.84051
G1 X205.853 Y52.039 E43.20955
G1 X205.32 Y52.039 E43.2263
G1 X236.701 Y83.42 E44.61902
G1 X236.701 Y83.954 E44.63577
G1 X204.786 Y52.039 E46.05218
G1 X204.252 Y52.039 E46.06894
G1 X236.701 Y84.488 E47.50904
G1 X236.701 Y85.022 E47.52579
G1 X203.718 Y52.039 E48.98958
G1 X203.185 Y52.039 E49.00633
G1 X236.701 Y85.555 E50.4938
G1 X236.701 Y86.089 E50.51055
G1 X202.651 Y52.039 E52.02172
G1 X202.117 Y52.039 E52.03847
G1 X236.701 Y86.623 E53.57332
G1 X236.701 Y87.157 E53.59007
G1 X201.583 Y52.039 E55.14862
G1 X201.05 Y52.039 E55.16537
G1 X236.701 Y87.69 E56.7476
G1 X236.701 Y88.224 E56.76435
G1 X200.516 Y52.039 E58.37027
G1 X199.982 Y52.039 E58.38702
G1 X236.701 Y88.758 E60.01663
G1 X236.701 Y89.292 E60.03338
G1 X199.448 Y52.039 E61.68667
G1 X198.915 Y52.039 E61.70342
G1 X236.701 Y89.825 E63.38041
G1 X236.701 Y90.359 E63.39716
G1 X198.381 Y52.039 E65.09783
G1 X197.847 Y52.039 E65.11458
G1 X236.701 Y90.893 E66.83894
G1 X236.701 Y91.427 E66.85569
G1 X197.313 Y52.039 E68.60374
G1 X196.78 Y52.039 E68.62049
G1 X236.701 Y91.96 E70.39223
G1 X236.701 Y92.494 E70.40898
G1 X196.246 Y52.039 E72.2044
G1 X195.712 Y52.039 E72.22115
G1 X236.701 Y93.028 E74.04027
G1 X236.701 Y93.562 E74.05702
G1 X195.178 Y52.039 E75.89982
G1 X194.645 Y52.039 E75.91657
G1 X236.701 Y94.095 E77.78306
G1 X236.701 Y94.629 E77.79981
G1 X194.111 Y52.039 E79.68999
G1 X193.577 Y52.039 E79.70674
G1 X236.701 Y95.163 E81.62061
G1 X236.701 Y95.697 E81.63736
G1 X193.043 Y52.039 E83.57492
G1 X192.51 Y52.039 E83.59167
G1 X236.701 Y96.23 E85.55291
G1 X236.701 Y96.764 E85.56966
G1 X191.976 Y52.039 E87.55459
G1 X191.442 Y52.039 E87.57134
G1 X236.701 Y97.298 E89.57997
G1 X236.701 Y97.832 E89.59672
G1 X190.908 Y52.039 E91.62903
G1 X190.375 Y52.039 E91.64578
G1 X236.701 Y98.365 E93.70177
G1 X236.701 Y98.899 E93.71852
G1 X189.841 Y52.039 E95.79821
G1 X189.307 Y52.039 E95.81496
G1 X236.701 Y99.433 E97.91833
G1 X236.701 Y99.967 E97.93508
G1 X188.773 Y52.039 E100.06215
G1 X188.24 Y52.039 E100.0789
G1 X236.701 Y100.5 E102.22965
G1 X236.701 Y101.034 E102.2464
G1 X187.706 Y52.039 E104.42084
G1 X187.172 Y52.039 E104.43759
G1 X236.701 Y101.568 E106.63572
G1 X236.701 Y102.102 E106.65247
G1 X186.638 Y52.039 E108.87428
G1 X186.105 Y52.039 E108.89103
G1 X236.701 Y102.635 E111.13654
G1 X236.701 Y103.169 E111.15329
G1 X185.571 Y52.039 E113.42248
G1 X185.037 Y52.039 E113.43923
G1 X236.701 Y103.703 E115.73211
G1 X236.701 Y104.237 E115.74886
G1 X184.503 Y52.039 E118.06543
G1 X183.97 Y52.039 E118.08218
G1 X236.701 Y104.77 E120.42244
G1 X236.701 Y105.304 E120.43919
G1 X183.436 Y52.039 E122.80314
G1 X182.902 Y52.039 E122.81989
G1 X236.701 Y105.838 E125.20752
G1 X236.701 Y106.372 E125.22427
G1 X182.368 Y52.039 E127.63559
G1 X181.835 Y52.039 E127.65234
G1 X236.701 Y106.905 E130.08736
G1 X236.701 Y107.439 E130.10411
G1 X181.301 Y52.039 E132.56281
G1 X180.767 Y52.039 E132.57956
G1 X236.701 Y107.973 E135.06194
G1 X236.701 Y108.507 E135.07869
G1 X180.233 Y52.039 E137.58477
G1 X179.7 Y52.039 E137.60152
G1 X236.701 Y109.04 E140.13128
G1 X236.701 Y109.574 E140.14804
G1 X179.166 Y52.039 E142.70149
G1 X178.632 Y52.039 E142.71824
G1 X236.701 Y110.108 E145.29538
G1 X236.701 Y110.642 E145.31213
G1 X178.098 Y52.039 E147.91296
G1 X177.565 Y52.039 E147.92971
G1 X236.701 Y111.175 E150.55423
G1 X236.701 Y111.709 E150.57098
G1 X177.031 Y52.039 E153.21918
G1 X176.497 Y52.039 E153.23593
G1 X236.701 Y112.243 E155.90783
G1 X236.701 Y112.777 E155.92458
G1 X175.963 Y52.039 E158.62016
G1 X175.43 Y52.039 E158.63691
G1 X236.701 Y113.31 E161.35618
G1 X236.701 Y113.844 E161.37293
G1 X174.896 Y52.039 E164.11589
G1 X174.362 Y52.039 E164.13264
G1 X236.701 Y114.378 E166.89929
G1 X236.701 Y114.911 E166.91604
G1 X173.829 Y52.039 E169.70638
G1 X173.295 Y52.039 E169.72313
G1 X236.701 Y115.445 E172.53715
G1 X236.701 Y115.979 E172.5539
G1 X172.761 Y52.039 E175.39162
G1 X172.227 Y52.039 E175.40837
G1 X236.701 Y116.513 E178.26977
G1 X236.701 Y117.046 E178.28652
G1 X171.694 Y52.039 E181.17161
G1 X171.16 Y52.039 E181.18836
G1 X236.701 Y117.58 E184.09714
G1 X236.701 Y118.114 E184.11389
G1 X170.626 Y52.039 E187.04635
G1 X170.092 Y52.039 E187.0631
G1 X236.701 Y118.648 E190.01926
G1 X236.701 Y119.181 E190.03601
G1 X169.559 Y52.039 E193.01585
G1 X169.025 Y52.039 E193.0326
G1 X236.701 Y119.715 E196.03613
G1 X236.701 Y120.249 E196.05288
G1 X168.491 Y52.039 E199.0801
G1 X167.957 Y52.039 E199.09685
G1 X236.701 Y120.783 E202.14776
G1 X236.701 Y121.316 E202.16451
G1 X167.424 Y52.039 E205.23911
G1 X166.89 Y52.039 E205.25586
G1 X236.701 Y121.85 E208.35414
G1 X236.701 Y122.384 E208.37089
G1 X166.356 Y52.039 E211.49287
G1 X165.822 Y52.039 E211.50962
G1 X236.701 Y122.918 E214.65528
G1 X236.701 Y123.451 E214.67203
G1 X165.289 Y52.039 E217.84138
G1 X164.755 Y52.039 E217.85813
G1 X236.701 Y123.985 E221.05117
G1 X236.701 Y124.519 E221.06792
G1 X164.221 Y52.039 E224.28464
G1 X163.687 Y52.039 E224.30139
G1 X236.701 Y125.053 E227.54181
G1 X236.701 Y125.586 E227.55856
G1 X163.154 Y52.039 E230.82266
G1 X162.62 Y52.039 E230.83941
G1 X236.701 Y126.12 E234.1272
G1 X236.701 Y126.654 E234.14395
G1 X162.086 Y52.039 E237.45543
G1 X161.552 Y52.039 E237.47218
G1 X236.701 Y127.188 E240.80735
G1 X236.701 Y127.721 E240.8241
G1 X161.019 Y52.039 E244.18296
G1 X160.485 Y52.039 E244.19971
G1 X236.701 Y128.255 E247.58225
G1 X236.701 Y128.789 E247.599
G1 X159.951 Y52.039 E251.00524
G1 X159.417 Y52.039 E251.02199
G1 X236.701 Y129.323 E254.45191
G1 X236.701 Y129.856 E254.46866
G1 X158.884 Y52.039 E257.92227
G1 X158.35 Y52.039 E257.93902
G1 X236.701 Y130.39 E261.41632
G1 X236.701 Y130.924 E261.43307
G1 X157.816 Y52.039 E264.93405
G1 X157.282 Y52.039 E264.9508
G1 X236.701 Y131.458 E268.47548
G1 X236.701 Y131.991 E268.49223
G1 X156.749 Y52.039 E272.04059
G1 X156.215 Y52.039 E272.05734
G1 X236.701 Y132.525 E275.6294
G1 X236.701 Y133.059 E275.64615
G1 X155.681 Y52.039 E279.24189
G1 X155.147 Y52.039 E279.25864
G1 X236.701 Y133.593 E282.87806
G1 X236.701 Y134.126 E282.89481
G1 X154.614 Y52.039 E286.53793
G1 X154.08 Y52.039 E286.55468
G1 X236.701 Y134.66 E290.22149
G1 X236.701 Y135.194 E290.23824
G1 X153.546 Y52.039 E293.92873
G1 X153.012 Y52.039 E293.94548
G1 X236.701 Y135.728 E297.65966
G1 X236.701 Y136.261 E297.67641
G1 X152.479 Y52.039 E301.41428
G1 X151.945 Y52.039 E301.43103
G1 X236.701 Y136.795 E305.19259
G1 X236.701 Y137.329 E305.20934
G1 X151.411 Y52.039 E308.99459
G1 X150.877 Y52.039 E309.01134
G1 X236.701 Y137.863 E312.82027
G1 X236.701 Y138.396 E312.83702
G1 X150.344 Y52.039 E316.66965
G1 X149.81 Y52.039 E316.6864
G1 X236.701 Y138.93 E320.54271
G1 X236.701 Y139.464 E320.55946
G1 X149.276 Y52.039 E324.43946
G1 X148.742 Y52.039 E324.45621
G1 X236.701 Y139.998 E328.3599
G1 X236.701 Y140.531 E328.37665
G1 X148.209 Y52.039 E332.30402
G1 X147.675 Y52.039 E332.32077
G1 X236.701 Y141.065 E336.27184
G1 X236.701 Y141.599 E336.28859
G1 X147.141 Y52.039 E340.26334
G1 X146.607 Y52.039 E340.28009
G1 X236.701 Y142.133 E344.27853
G1 X236.701 Y142.666 E344.29528
G1 X146.074 Y52.039 E348.31741
G1 X145.54 Y52.039 E348.33416
G1 X236.701 Y143.2 E352.37998
G1 X236.701 Y143.734 E352.39673
G1 X145.006 Y52.039 E356.46624
G1 X144.472 Y52.039 E356.48299
G1 X236.701 Y144.268 E360.57619
G1 X236.701 Y144.801 E360.59294
G1 X143.939 Y52.039 E364.70982
G1 X143.405 Y52.039 E364.72657
G1 X236.701 Y145.335 E368.86714
G1 X236.701 Y145.869 E368.88389
G1 X142.871 Y52.039 E373.04815
G1 X142.337 Y52.039 E373.0649
G1 X236.701 Y146.403 E377.25285
G1 X236.701 Y146.936 E377.2696
G1 X141.804 Y52.039 E381.48124
G1 X141.27 Y52.039 E381.49799
G1 X236.701 Y147.47 E385.73331
G1 X236.701 Y147.961 E385.7487
G1 X236.657 Y147.961 E385.75006
G1 X140.736 Y52.039 E390.00716
G1 X140.202 Y52.039 E390.02391
G1 X236.123 Y147.961 E394.281
G1 X235.59 Y147.961 E394.29775
G1 X139.669 Y52.039 E398.55484
G1 X139.135 Y52.039 E398.57159
G1 X235.056 Y147.961 E402.82868
G1 X234.522 Y147.961 E402.84543
G1 X138.601 Y52.039 E407.10253
G1 X138.067 Y52.039 E407.11928
G1 X233.988 Y147.961 E411.37637
G1 X233.455 Y147.961 E411.39312
G1 X137.534 Y52.039 E415.65021
G1 X137 Y52.039 E415.66696
G1 X232.921 Y147.961 E419.92405
G1 X232.387 Y147.961 E419.9408
G1 X136.466 Y52.039 E424.1979
G1 X135.932 Y52.039 E424.21465
G1 X231.853 Y147.961 E428.47174
G1 X231.32 Y147.961 E428.48849
G1 X135.399 Y52.039 E432.74558
G1 X134.865 Y52.039 E432.76233
G1 X230.786 Y147.961 E437.01942
G1 X230.252 Y147.961 E437.03617
G1 X134.331 Y52.039 E441.29327
G1 X133.798 Y52.039 E441.31002
G1 X229.719 Y147.961 E445.56711
G1 X229.185 Y147.961 E445.58386
G1 X133.264 Y52.039 E449.84095
G1 X132.73 Y52.039 E449.8577
G1 X228.651 Y147.961 E454.11479
G1 X228.117 Y147.961 E454.13154
G1 X132.196 Y52.039 E458.38864
G1 X131.663 Y52.039 E458.40539
G1 X227.584 Y147.961 E462.66248
G1 X227.05 Y147.961 E462.67923
G1 X131.129 Y52.039 E466.93632
G1 X130.595 Y52.039 E466.95307
G1 X226.516 Y147.961 E471.21016
G1 X225.982 Y147.961 E471.22691
G1 X130.061 Y52.039 E475.48401
G1 X129.528 Y52.039 E475.50076
G1 X225.449 Y147.961 E479.75785
G1 X224.915 Y147.961 E479.7746
G1 X128.994 Y52.039 E484.03169
G1 X128.46 Y52.039 E484.04844
G1 X224.381 Y147.961 E488.30553
G1 X223.847 Y147.961 E488.32228
G1 X127.926 Y52.039 E492.57938
G1 X127.393 Y52.039 E492.59613
G1 X223.314 Y147.961 E496.85322
G1 X222.78 Y147.961 E496.86997
G1 X126.859 Y52.039 E501.12706
G1 X126.325 Y52.039 E501.14381
G1 X222.246 Y147.961 E505.4009
G1 X221.712 Y147.961 E505.41765
G1 X125.791 Y52.039 E509.67475
G1 X125.258 Y52.039 E509.6915
G1 X221.179 Y147.961 E513.94859
G1 X220.645 Y147.961 E513.96534
G1 X124.724 Y52.039 E518.22243
G1 X124.19 Y52.039 E518.23918
G1 X220.111 Y147.961 E522.49627
G1 X219.577 Y147.961 E522.51302
G1 X123.656 Y52.039 E526.77012
G1 X123.123 Y52.039 E526.78687
G1 X219.044 Y147.961 E531.04396
G1 X218.51 Y147.961 E531.06071
G1 X122.589 Y52.039 E535.3178
G1 X122.055 Y52.039 E535.33455
G1 X217.976 Y147.961 E539.59164
G1 X217.442 Y147.961 E539.60839
G1 X121.521 Y52.039 E543.86549
G1 X120.988 Y52.039 E543.88224
G1 X216.909 Y147.961 E548.13933
G1 X216.375 Y147.961 E548.15608
G1 X120.454 Y52.039 E552.41317
G1 X119.92 Y52.039 E552.42992
G1 X215.841 Y147.961 E556.68701
G1 X215.307 Y147.961 E556.70376
G1 X119.386 Y52.039 E560.96086
G1 X118.853 Y52.039 E560.97761
G1 X214.774 Y147.961 E565.2347
G1 X214.24 Y147.961 E565.25145
G1 X118.319 Y52.039 E569.50854
G1 X117.785 Y52.039 E569.52529
G1 X213.706 Y147.961 E573.78238
G1 X213.172 Y147.961 E573.79913
G1 X117.251 Y52.039 E578.05623
G1 X116.718 Y52.039 E578.07298
G1 X212.639 Y147.961 E582.33007
G1 X212.105 Y147.961 E582.34682
G1 X116.184 Y52.039 E586.60391
G1 X115.65 Y52.039 E586.62066
G1 X211.571 Y147.961 E590.87775
G1 X211.037 Y147.961 E590.8945
G1 X115.116 Y52.039 E595.1516
G1 X114.583 Y52.039 E595.16835
