; generated by PrusaSlicer 2.5.0+win64 on 2022-12-21 at 23:07:42 UTC

; 

; external perimeters extrusion width = 0.42mm
; perimeters extrusion width = 0.44mm
; infill extrusion width = 0.44mm
; solid infill extrusion width = 0.44mm
; top infill extrusion width = 0.40mm
; first layer extrusion width = 0.42mm

M107
M190 S90 ; set bed temperature and wait for it to be reached
M104 S245 ; set temperature
;TYPE:Custom
G28 ; home all axes
G1 Z5 F5000 ; lift nozzle
M109 S245 ; set temperature and wait for it to be reached
G21 ; set units to millimeters
G90 ; use absolute coordinates
M82 ; use absolute distances for extrusion
G92 E0
; Filament gcode
M107
;LAYER_CHANGE
;Z:0.2
;HEIGHT:0.2
G1 Z.2 F9000
G1 E-2 F2400
G92 E0
G1 X145.311 Y96.858 F9000
G1 E2 F2400
M204 S500
;TYPE:Skirt/Brim
;WIDTH:0.42
G1 F1200
G1 X146.19 Y95.835 E2.04227
G1 X147.21 Y95.094 E2.08179
G1 X148.062 Y94.698 E2.11124
G1 X149.046 Y94.436 E2.14318
G1 X150.33 Y94.364 E2.1835
G1 X151.392 Y94.528 E2.2172
G1 X152.477 Y94.927 E2.25343
G1 X153.176 Y95.332 E2.27876
G1 X154.044 Y96.06 E2.31428
G1 X154.572 Y96.687 E2.34
G1 X155.084 Y97.543 E2.37127
G1 X155.513 Y98.783 E2.41242
G1 X155.637 Y99.692 E2.44117
G1 X155.545 Y101.065 E2.48431
G1 X155.341 Y101.834 E2.50927
G1 X154.731 Y103.08 E2.55277
G1 X154.203 Y103.77 E2.58001
G1 X153.161 Y104.677 E2.62332
G1 X152.435 Y105.093 E2.64957
G1 X151.137 Y105.529 E2.69248
G1 X150.339 Y105.635 E2.71772
G1 X149.156 Y105.567 E2.75488
G1 X148.146 Y105.31 E2.78755
G1 X146.917 Y104.703 E2.83054
G1 X146.273 Y104.211 E2.85593
G1 X145.383 Y103.227 E2.89755
G1 X144.952 Y102.523 E2.92343
G1 X144.628 Y101.731 E2.95027
G1 X144.363 Y100.28 E2.99651
G1 X144.471 Y98.866 E3.04098
G1 X144.904 Y97.575 E3.08366
G1 X145.282 Y96.91 E3.10765
G1 X145.625 Y97.135 F9000
G1 F1200
G1 X145.974 Y96.604 E3.12757
G1 X146.515 Y96.05 E3.15186
G1 X147.521 Y95.352 E3.19026
G1 X148.372 Y94.989 E3.21925
G1 X149.373 Y94.769 E3.25141
G1 X150.305 Y94.741 E3.28063
G1 X151.301 Y94.894 E3.31222
G1 X152.309 Y95.264 E3.3459
G1 X153.228 Y95.835 E3.37982
G1 X153.949 Y96.512 E3.41084
G1 X154.635 Y97.495 E3.44841
G1 X154.986 Y98.297 E3.47585
G1 X155.178 Y99.028 E3.49957
G1 X155.26 Y100.306 E3.5397
G1 X155.041 Y101.535 E3.57886
G1 X154.739 Y102.303 E3.60474
G1 X154.094 Y103.316 E3.64238
G1 X153.499 Y103.939 E3.66939
G1 X152.87 Y104.418 E3.6942
G1 X151.725 Y104.978 E3.73415
G1 X150.968 Y105.178 E3.75871
G1 X149.696 Y105.256 E3.79866
G1 X148.759 Y105.099 E3.82844
G1 X147.636 Y104.684 E3.86599
G1 X146.578 Y103.977 E3.90588
G1 X145.99 Y103.384 E3.93206
G1 X145.315 Y102.402 E3.96943
G1 X145.016 Y101.705 E3.99322
G1 X144.821 Y100.96 E4.01736
G1 X144.743 Y99.673 E4.05778
G1 X144.99 Y98.375 E4.09921
G1 X145.286 Y97.651 E4.12374
G1 X145.592 Y97.185 E4.14121
G1 X145.904 Y97.391 F9000
G1 F1200
G1 X146.26 Y96.85 E4.16149
G1 X146.767 Y96.331 E4.18426
G1 X147.696 Y95.686 E4.2197
G1 X148.488 Y95.348 E4.24672
G1 X149.417 Y95.143 E4.27653
G1 X150.28 Y95.117 E4.30361
G1 X151.21 Y95.26 E4.3331
G1 X152.142 Y95.602 E4.36423
G1 X152.996 Y96.132 E4.39575
G1 X153.665 Y96.76 E4.42453
G1 X154.302 Y97.672 E4.45939
G1 X154.629 Y98.417 E4.48491
G1 X154.809 Y99.101 E4.50708
G1 X154.884 Y100.28 E4.54412
G1 X154.775 Y101.062 E4.56887
G1 X154.401 Y102.136 E4.60454
G1 X153.803 Y103.077 E4.63949
G1 X153.251 Y103.654 E4.66453
G1 X152.661 Y104.104 E4.68778
G1 X151.605 Y104.62 E4.72466
G1 X150.895 Y104.808 E4.74768
G1 X149.724 Y104.88 E4.78448
G1 X148.847 Y104.733 E4.81234
G1 X147.89 Y104.389 E4.84423
G1 X147.255 Y104.022 E4.86724
G1 X146.372 Y103.248 E4.90405
G1 X145.851 Y102.578 E4.93064
G1 X145.374 Y101.586 E4.96516
G1 X145.191 Y100.888 E4.98779
G1 X145.119 Y99.7 E5.02511
G1 X145.348 Y98.495 E5.06357
G1 X145.625 Y97.816 E5.08656
G1 X145.871 Y97.441 E5.10063
G1 X146.184 Y97.646 F9000
G1 F1200
G1 X146.546 Y97.096 E5.12128
G1 X147.02 Y96.611 E5.14255
G1 X147.871 Y96.02 E5.17502
G1 X148.605 Y95.707 E5.20005
G1 X149.46 Y95.518 E5.22753
G1 X150.255 Y95.493 E5.25246
G1 X151.118 Y95.626 E5.27984
G1 X151.974 Y95.94 E5.30842
G1 X152.764 Y96.43 E5.33755
G1 X153.382 Y97.009 E5.3641
G1 X153.97 Y97.849 E5.39625
G1 X154.271 Y98.538 E5.41985
G1 X154.439 Y99.174 E5.44046
G1 X154.507 Y100.255 E5.47441
G1 X154.406 Y100.983 E5.49748
G1 X154.063 Y101.97 E5.53022
G1 X153.512 Y102.837 E5.56246
G1 X153.007 Y103.367 E5.58541
G1 X152.453 Y103.79 E5.60724
G1 X151.485 Y104.263 E5.64103
G1 X150.822 Y104.438 E5.66252
G1 X149.751 Y104.504 E5.69618
G1 X148.935 Y104.366 E5.72213
G1 X148.057 Y104.051 E5.75137
G1 X147.464 Y103.708 E5.77283
G1 X146.655 Y102.999 E5.80657
G1 X146.167 Y102.372 E5.83148
G1 X145.732 Y101.467 E5.86296
G1 X145.562 Y100.816 E5.88408
G1 X145.495 Y99.726 E5.9183
G1 X145.705 Y98.614 E5.95378
G1 X145.964 Y97.981 E5.97524
G1 X146.151 Y97.696 E5.98591
G1 X146.463 Y97.899 F9000
G1 F1200
G1 X146.806 Y97.371 E6.00565
G1 X147.272 Y96.891 E6.02662
G1 X148.045 Y96.354 E6.05613
G1 X148.722 Y96.065 E6.0792
G1 X149.504 Y95.892 E6.10432
G1 X150.23 Y95.869 E6.12711
G1 X151.027 Y95.992 E6.15239
G1 X151.807 Y96.278 E6.17842
G1 X152.531 Y96.727 E6.20515
G1 X153.098 Y97.257 E6.22947
G1 X153.637 Y98.026 E6.25891
G1 X153.914 Y98.659 E6.28058
G1 X154.069 Y99.247 E6.29964
G1 X154.131 Y100.229 E6.33051
G1 X154.038 Y100.905 E6.3519
G1 X153.725 Y101.803 E6.38171
G1 X153.22 Y102.598 E6.41124
G1 X152.759 Y103.083 E6.43224
G1 X152.245 Y103.475 E6.4525
G1 X151.365 Y103.905 E6.48321
G1 X150.75 Y104.068 E6.50316
G1 X149.778 Y104.128 E6.53367
G1 X149.023 Y103.999 E6.55771
G1 X148.224 Y103.713 E6.58432
G1 X147.674 Y103.395 E6.60424
G1 X146.939 Y102.75 E6.63489
G1 X146.483 Y102.166 E6.65813
G1 X146.09 Y101.349 E6.68656
G1 X145.932 Y100.744 E6.70617
G1 X145.871 Y99.753 E6.73729
G1 X146.063 Y98.734 E6.7698
G1 X146.303 Y98.146 E6.78972
G1 X146.431 Y97.949 E6.79706
; printing object Case_Parafuso_M2_8mm.stl id:0 copy 0
G1 E4.79706 F2400
G92 E0
G1 X150.156 Y99.989 F9000
G1 E2 F2400
;TYPE:Perimeter
;WIDTH:0.352606
G1 F1200
G1 X150.098 Y99.88 E2.00319
G1 X149.97 Y99.842 E2.00664
G1 X149.862 Y99.924 E2.01012
G1 X149.86 Y100.065 E2.01377
G1 X149.958 Y100.15 E2.01711
G1 X150.098 Y100.124 E2.02076
G1 X150.156 Y99.989 E2.02454
G1 X149.941 Y100.506 F9000
;TYPE:External perimeter
;WIDTH:0.419999
G1 F1200
G1 X149.745 Y100.44 E2.03103
G1 X149.591 Y100.303 E2.0375
G1 X149.498 Y100.033 E2.04645
G1 X149.554 Y99.756 E2.05532
G1 X149.686 Y99.599 E2.06175
G1 X149.874 Y99.506 E2.06829
G1 X150.104 Y99.512 E2.07552
G1 X150.314 Y99.612 E2.08281
G1 X150.443 Y99.769 E2.08919
G1 X150.498 Y99.966 E2.09558
G1 X150.505 Y100.071 E2.09891
G1 X150.391 Y100.31 E2.10722
G1 X150.218 Y100.449 E2.11416
G1 X150 Y100.494 E2.12113
G1 X149.852 Y100.319 F9000
; stop printing object Case_Parafuso_M2_8mm.stl id:0 copy 0
;LAYER_CHANGE
;Z:0.32
;HEIGHT:0.12
G1 Z.32 F9000
G1 E.12113 F2400
G92 E0
G1 X149.708 Y105.599 F9000
G1 E2 F2400
;TYPE:Skirt/Brim
;WIDTH:0.42
G1 X149.156 Y105.567 E2.01087
G1 X148.146 Y105.31 E2.03137
G1 X146.917 Y104.703 E2.05834
G1 X146.273 Y104.211 E2.07427
G1 X145.383 Y103.227 E2.10038
G1 X144.952 Y102.523 E2.11661
G1 X144.628 Y101.731 E2.13344
G1 X144.363 Y100.28 E2.16246
G1 X144.471 Y98.866 E2.19035
G1 X144.904 Y97.575 E2.21713
G1 X145.311 Y96.858 E2.23336
G1 X146.19 Y95.835 E2.25987
G1 X147.21 Y95.094 E2.28467
G1 X148.062 Y94.698 E2.30314
G1 X149.046 Y94.436 E2.32317
G1 X150.33 Y94.364 E2.34847
G1 X151.392 Y94.528 E2.36961
G1 X152.477 Y94.927 E2.39234
G1 X153.176 Y95.332 E2.40823
G1 X154.044 Y96.06 E2.43051
G1 X154.572 Y96.687 E2.44664
G1 X155.084 Y97.543 E2.46626
G1 X155.513 Y98.783 E2.49207
G1 X155.637 Y99.692 E2.51011
G1 X155.545 Y101.065 E2.53717
G1 X155.341 Y101.834 E2.55283
G1 X154.731 Y103.08 E2.58012
G1 X154.203 Y103.77 E2.5972
G1 X153.161 Y104.677 E2.62438
G1 X152.435 Y105.093 E2.64084
G1 X151.137 Y105.529 E2.66776
G1 X150.339 Y105.635 E2.68359
G1 X149.768 Y105.602 E2.69485
G1 X149.747 Y105.253 F9000
G1 F2400
G1 X148.759 Y105.099 E2.71451
G1 X147.636 Y104.684 E2.73806
G1 X146.578 Y103.977 E2.76309
G1 X145.99 Y103.384 E2.77951
G1 X145.315 Y102.402 E2.80296
G1 X145.016 Y101.705 E2.81788
G1 X144.821 Y100.96 E2.83302
G1 X144.743 Y99.673 E2.85838
G1 X144.99 Y98.375 E2.88437
G1 X145.286 Y97.651 E2.89975
G1 X145.974 Y96.604 E2.92439
G1 X146.515 Y96.05 E2.93962
G1 X147.521 Y95.352 E2.96371
G1 X148.372 Y94.989 E2.9819
G1 X149.373 Y94.769 E3.00207
G1 X150.305 Y94.741 E3.0204
G1 X151.301 Y94.894 E3.04022
G1 X152.309 Y95.264 E3.06135
G1 X153.228 Y95.835 E3.08262
G1 X153.949 Y96.512 E3.10208
G1 X154.635 Y97.495 E3.12565
G1 X154.986 Y98.297 E3.14287
G1 X155.178 Y99.028 E3.15775
G1 X155.26 Y100.306 E3.18292
G1 X155.041 Y101.535 E3.20749
G1 X154.739 Y102.303 E3.22372
G1 X154.094 Y103.316 E3.24734
G1 X153.499 Y103.939 E3.26428
G1 X152.87 Y104.418 E3.27984
G1 X151.725 Y104.978 E3.30491
G1 X150.968 Y105.178 E3.32031
G1 X149.807 Y105.249 E3.34319
G1 X149.784 Y104.876 F9000
G1 F2400
G1 X149.724 Y104.88 E3.34438
G1 X148.847 Y104.733 E3.36186
G1 X147.89 Y104.389 E3.38186
G1 X147.255 Y104.022 E3.3963
G1 X146.372 Y103.248 E3.41939
G1 X145.851 Y102.578 E3.43607
G1 X145.374 Y101.586 E3.45773
G1 X145.191 Y100.888 E3.47192
G1 X145.119 Y99.7 E3.49533
G1 X145.348 Y98.495 E3.51946
G1 X145.625 Y97.816 E3.53388
G1 X146.26 Y96.85 E3.55662
G1 X146.767 Y96.331 E3.5709
G1 X147.696 Y95.686 E3.59313
G1 X148.488 Y95.348 E3.61008
G1 X149.417 Y95.143 E3.62878
G1 X150.28 Y95.117 E3.64577
G1 X151.21 Y95.26 E3.66427
G1 X152.142 Y95.602 E3.68379
G1 X152.996 Y96.132 E3.70357
G1 X153.665 Y96.76 E3.72162
G1 X154.302 Y97.672 E3.74349
G1 X154.629 Y98.417 E3.7595
G1 X154.809 Y99.101 E3.77341
G1 X154.884 Y100.28 E3.79665
G1 X154.775 Y101.062 E3.81217
G1 X154.401 Y102.136 E3.83455
G1 X153.803 Y103.077 E3.85647
G1 X153.251 Y103.654 E3.87218
G1 X152.661 Y104.104 E3.88677
G1 X151.605 Y104.62 E3.9099
G1 X150.895 Y104.808 E3.92434
G1 X149.844 Y104.872 E3.94506
G1 X149.821 Y104.499 F9000
G1 F2400
G1 X149.751 Y104.504 E3.94644
G1 X148.935 Y104.366 E3.96272
G1 X148.057 Y104.051 E3.98106
G1 X147.464 Y103.708 E3.99453
G1 X146.655 Y102.999 E4.01569
G1 X146.167 Y102.372 E4.03132
G1 X145.732 Y101.467 E4.05106
G1 X145.562 Y100.816 E4.06431
G1 X145.495 Y99.726 E4.08578
G1 X145.705 Y98.614 E4.10804
G1 X145.964 Y97.981 E4.1215
G1 X146.546 Y97.096 E4.14233
G1 X147.02 Y96.611 E4.15567
G1 X147.871 Y96.02 E4.17604
G1 X148.605 Y95.707 E4.19175
G1 X149.46 Y95.518 E4.20898
G1 X150.255 Y95.493 E4.22462
G1 X151.118 Y95.626 E4.2418
G1 X151.974 Y95.94 E4.25973
G1 X152.764 Y96.43 E4.278
G1 X153.382 Y97.009 E4.29465
G1 X153.97 Y97.849 E4.31482
G1 X154.271 Y98.538 E4.32963
G1 X154.439 Y99.174 E4.34255
G1 X154.507 Y100.255 E4.36386
G1 X154.406 Y100.983 E4.37833
G1 X154.063 Y101.97 E4.39887
G1 X153.512 Y102.837 E4.41909
G1 X153.007 Y103.367 E4.43349
G1 X152.453 Y103.79 E4.44718
G1 X151.485 Y104.263 E4.46838
G1 X150.822 Y104.438 E4.48186
G1 X149.881 Y104.496 E4.50041
G1 X149.858 Y104.123 F9000
G1 F2400
G1 X149.778 Y104.128 E4.50198
G1 X149.023 Y103.999 E4.51706
G1 X148.224 Y103.713 E4.53376
G1 X147.674 Y103.395 E4.54625
G1 X146.939 Y102.75 E4.56547
G1 X146.483 Y102.166 E4.58005
G1 X146.09 Y101.349 E4.59789
G1 X145.932 Y100.744 E4.61019
G1 X145.871 Y99.753 E4.62971
G1 X146.063 Y98.734 E4.65011
G1 X146.303 Y98.146 E4.6626
G1 X146.806 Y97.371 E4.68077
G1 X147.272 Y96.891 E4.69393
G1 X148.045 Y96.354 E4.71244
G1 X148.722 Y96.065 E4.72691
G1 X149.504 Y95.892 E4.74267
G1 X150.23 Y95.869 E4.75696
G1 X151.027 Y95.992 E4.77282
G1 X151.807 Y96.278 E4.78915
G1 X152.531 Y96.727 E4.80592
G1 X153.098 Y97.257 E4.82118
G1 X153.637 Y98.026 E4.83964
G1 X153.914 Y98.659 E4.85324
G1 X154.069 Y99.247 E4.8652
G1 X154.131 Y100.229 E4.88456
G1 X154.038 Y100.905 E4.89798
G1 X153.725 Y101.803 E4.91668
G1 X153.22 Y102.598 E4.9352
G1 X152.759 Y103.083 E4.94838
G1 X152.245 Y103.475 E4.96109
G1 X151.365 Y103.905 E4.98035
G1 X150.75 Y104.068 E4.99287
G1 X149.918 Y104.119 E5.00926
; printing object Case_Parafuso_M2_8mm.stl id:0 copy 0
G1 E3.00926
G92 E0
G1 X149.505 Y100.226 F9000
G1 E2 F2400
;TYPE:External perimeter
;WIDTH:0.419999
G1 F1500
G1 X149.455 Y99.991 E2.00472
G1 X149.498 Y99.788 E2.0088
G1 X149.667 Y99.568 E2.01427
G1 X149.858 Y99.47 E2.01849
G1 X150.225 Y99.502 E2.02573
G1 X150.401 Y99.627 E2.02998
G1 X150.523 Y99.877 E2.03544
G1 X150.548 Y100 E2.03791
G1 X150.502 Y100.215 E2.04223
G1 X150.312 Y100.45 E2.04819
G1 X150.028 Y100.544 E2.05405
G1 X149.729 Y100.439 E2.06029
G1 X149.549 Y100.267 E2.06519
G1 X149.634 Y100.023 F9000
G1 X150.047 Y99.926
;TYPE:Perimeter
;WIDTH:0.676874
G1 F2400
G1 X149.966 Y99.926 E2.06784
G1 X149.925 Y99.996 E2.07048
G1 X149.966 Y100.067 E2.07312
G1 X150.047 Y100.067 E2.07577
G1 X150.088 Y99.996 E2.07841
; stop printing object Case_Parafuso_M2_8mm.stl id:0 copy 0
;LAYER_CHANGE
;Z:0.44
;HEIGHT:0.12
G1 Z.44 F9000
; printing object Case_Parafuso_M2_8mm.stl id:0 copy 0
G1 X150.198 Y99.979
;WIDTH:0.363509
G1 F2400
G1 X150.141 Y99.86 E2.08063
G1 X150.069 Y99.821 E2.08201
G1 X149.876 Y99.921 E2.08567
G1 X149.808 Y100.066 E2.08837
G1 X149.924 Y100.183 E2.09116
G1 X150.082 Y100.181 E2.09381
G1 X150.187 Y100.069 E2.0964
G1 X150.198 Y99.979 E2.09793
G1 X150.097 Y99.437 F9000
;TYPE:External perimeter
;WIDTH:0.419999
G1 F1500
G1 X150.349 Y99.555 E2.10341
G1 X150.5 Y99.737 E2.10804
G1 X150.563 Y99.955 E2.11252
G1 X150.571 Y100.077 E2.11493
G1 X150.499 Y100.287 E2.11929
G1 X150.35 Y100.457 E2.12375
G1 X150.148 Y100.556 E2.12816
G1 X149.928 Y100.57 E2.1325
G1 X149.712 Y100.497 E2.13698
G1 X149.507 Y100.279 E2.14287
G1 X149.43 Y100.01 E2.14837
G1 X149.582 Y99.685 E2.15544
G1 X149.811 Y99.509 E2.16112
G1 X150.039 Y99.451 E2.16575
G1 X150.2 Y99.695 F9000
; stop printing object Case_Parafuso_M2_8mm.stl id:0 copy 0
;LAYER_CHANGE
;Z:0.56
;HEIGHT:0.12
G1 Z.56 F9000
; printing object Case_Parafuso_M2_8mm.stl id:0 copy 0
G1 X149.813 Y100.077
;TYPE:Perimeter
;WIDTH:0.382679
G1 F1500
G1 X149.781 Y99.998 E2.16727
G1 X149.83 Y99.867 E2.16975
G1 X149.957 Y99.788 E2.17242
G1 X150.066 Y99.861 E2.17476
G1 X150.15 Y100.007 E2.17774
;WIDTH:0.38168
G1 X150.149 Y100.153 E2.18034
G1 X150 Y100.221 E2.18326
G1 X149.845 Y100.156 E2.18624
;WIDTH:0.382679
G1 X149.835 Y100.132 E2.18669
G1 X149.442 Y100.228 F9000
;TYPE:External perimeter
;WIDTH:0.419999
G1 F1500
G1 X149.398 Y99.996 E2.19134
G1 X149.444 Y99.768 E2.19592
G1 X149.576 Y99.572 E2.20056
G1 X149.772 Y99.442 E2.20518
G1 X149.991 Y99.399 E2.20958
G1 X150.19 Y99.46 E2.21368
G1 X150.417 Y99.676 E2.21982
G1 X150.522 Y99.963 E2.22585
G1 X150.521 Y100.204 E2.23058
G1 X150.421 Y100.431 E2.23547
G1 X150.23 Y100.558 E2.23996
G1 X150.001 Y100.603 E2.24457
G1 X149.776 Y100.56 E2.24907
G1 X149.575 Y100.427 E2.25382
G1 X149.476 Y100.278 E2.25734
G1 X149.587 Y100.041 F9000
; stop printing object Case_Parafuso_M2_8mm.stl id:0 copy 0
;LAYER_CHANGE
;Z:0.68
;HEIGHT:0.12
G1 Z.68 F9000
; printing object Case_Parafuso_M2_8mm.stl id:0 copy 0
G1 X149.758 Y100.018
;TYPE:Perimeter
;WIDTH:0.392756
G1 F1500
G1 X149.83 Y99.827 E2.26108
G1 X149.984 Y99.764 E2.26412
G1 X150.121 Y99.794 E2.26669
G1 X150.231 Y99.934 E2.26995
G1 X150.239 Y99.999 E2.27116
G1 X150.076 Y100.123 E2.2749
G1 X149.831 Y100.086 E2.27946
G1 X149.801 Y100.059 E2.28019
G1 X149.382 Y100.079 F9000
;TYPE:External perimeter
;WIDTH:0.419999
G1 F1500
G1 X149.418 Y99.756 E2.28658
G1 X149.557 Y99.551 E2.29146
G1 X149.76 Y99.417 E2.29624
G1 X149.918 Y99.389 E2.29938
G1 X150.136 Y99.393 E2.30368
G1 X150.333 Y99.478 E2.3079
G1 X150.51 Y99.647 E2.31272
G1 X150.605 Y99.862 E2.31733
G1 X150.608 Y100.092 E2.32186
G1 X150.461 Y100.343 E2.32759
G1 X150.295 Y100.437 E2.33134
G1 X150.007 Y100.525 E2.33726
G1 X149.626 Y100.426 E2.345
G1 X149.453 Y100.275 E2.34952
G1 X149.402 Y100.135 E2.35244
G1 X149.64 Y99.882 F9000
; stop printing object Case_Parafuso_M2_8mm.stl id:0 copy 0
;LAYER_CHANGE
;Z:0.8
;HEIGHT:0.12
G1 Z.8 F9000
; printing object Case_Parafuso_M2_8mm.stl id:0 copy 0
G1 X150.175 Y99.811
;TYPE:Perimeter
;WIDTH:0.4104
G1 F1500
G1 X150.257 Y99.97 E2.35587
G1 X150.261 Y100.037 E2.35716
G1 X150.171 Y100.2 E2.36074
G1 X149.99 Y100.257 E2.36438
G1 X149.919 Y100.201 E2.36612
G1 X149.874 Y100.023 E2.36964
G1 X149.928 Y99.871 E2.37273
G1 X150.063 Y99.765 E2.37603
G1 X150.12 Y99.788 E2.3772
