; generated by PrusaSlicer 2.5.0+win64 on 2022-12-21 at 23:06:56 UTC

; 

; external perimeters extrusion width = 0.42mm
; perimeters extrusion width = 0.44mm
; infill extrusion width = 0.44mm
; solid infill extrusion width = 0.44mm
; top infill extrusion width = 0.40mm
; first layer extrusion width = 0.42mm

M107
M190 S90 ; set bed temperature and wait for it to be reached
M104 S245 ; set temperature
;TYPE:Custom
G28 ; home all axes
G1 Z5 F5000 ; lift nozzle
M109 S245 ; set temperature and wait for it to be reached
G21 ; set units to millimeters
G90 ; use absolute coordinates
M82 ; use absolute distances for extrusion
G92 E0
; Filament gcode
M107
;LAYER_CHANGE
;Z:0.2
;HEIGHT:0.2
G1 Z.2 F9000
G1 E-2 F2400
G92 E0
G1 X58.962 Y49.102 F9000
G1 E2 F2400
M204 S500
;TYPE:Skirt/Brim
;WIDTH:0.42
G1 F1200
G1 X60.052 Y47.888 E2.05115
G1 X61.945 Y47.308 E2.11323
G1 X238.055 Y47.308 E7.63503
G1 X239.638 Y47.702 E7.68618
G1 X240.852 Y48.792 E7.73734
G1 X241.432 Y50.685 E7.79941
G1 X241.432 Y149.315 E10.89188
G1 X241.038 Y150.898 E10.94304
G1 X239.948 Y152.112 E10.99419
G1 X238.055 Y152.692 E11.05626
G1 X61.945 Y152.692 E16.57807
G1 X60.362 Y152.298 E16.62922
G1 X59.148 Y151.208 E16.68037
G1 X58.568 Y149.315 E16.74245
G1 X58.568 Y50.685 E19.83492
G1 X58.948 Y49.16 E19.88419
; printing object Case_Tampa.stl id:0 copy 0
G1 E17.88419 F2400
G92 E0
G1 X63.009 Y51.749 F9000
G1 E2 F2400
;TYPE:Perimeter
;WIDTH:0.419999
G1 F1200
G1 X64.747 Y51.749 E2.05449
G1 X64.31 Y51.965 E2.06977
G1 X63.903 Y52.317 E2.08664
G1 X63.602 Y52.763 E2.10351
;WIDTH:0.440828
G1 X63.416 Y53.27 E2.12138
G1 X63.387 Y53.562 E2.13108
;WIDTH:0.444594
G1 X63.42 Y54.141 E2.15044
G1 X63.602 Y54.607 E2.16716
;WIDTH:0.419999
G1 X63.904 Y55.053 E2.18404
G1 X64.357 Y55.431 E2.20256
G1 X64.794 Y55.64 E2.21774
G1 X65.322 Y55.742 E2.2346
G1 X65.859 Y55.704 E2.25147
G1 X66.367 Y55.528 E2.26834
G1 X66.813 Y55.227 E2.28521
G1 X67.165 Y54.82 E2.30207
G1 X67.4 Y54.336 E2.31894
G1 X67.502 Y53.808 E2.33581
G1 X67.464 Y53.271 E2.35268
G1 X67.288 Y52.763 E2.36955
G1 X66.987 Y52.317 E2.38642
G1 X66.58 Y51.965 E2.40328
G1 X66.143 Y51.749 E2.41857
G1 X233.857 Y51.749 E7.67711
G1 X233.42 Y51.965 E7.6924
G1 X233.013 Y52.317 E7.70927
G1 X232.712 Y52.763 E7.72613
G1 X232.536 Y53.271 E7.743
G1 X232.498 Y53.808 E7.75987
G1 X232.6 Y54.336 E7.77674
G1 X232.835 Y54.82 E7.79361
G1 X233.206 Y55.241 E7.81121
G1 X233.661 Y55.54 E7.82828
G1 X234.141 Y55.704 E7.84418
G1 X234.678 Y55.742 E7.86105
G1 X235.206 Y55.64 E7.87792
G1 X235.69 Y55.405 E7.89478
G1 X236.097 Y55.053 E7.91165
G1 X236.398 Y54.607 E7.92852
;WIDTH:0.444592
G1 X236.58 Y54.141 E7.94524
G1 X236.613 Y53.808 E7.9564
;WIDTH:0.440829
G1 X236.584 Y53.27 E7.97423
G1 X236.398 Y52.763 E7.9921
;WIDTH:0.419999
G1 X236.097 Y52.317 E8.00897
G1 X235.69 Y51.965 E8.02583
G1 X235.253 Y51.749 E8.04112
G1 X236.991 Y51.749 E8.09561
G1 X236.991 Y52.188 E8.10938
G1 X236.991 Y52.307 E8.11309
;WIDTH:0.424757
G1 X236.99 Y53.537 E8.15216
;WIDTH:0.444592
G1 X236.991 Y54.725 E8.19183
;WIDTH:0.419999
G1 X236.991 Y144.937 E11.02035
;WIDTH:0.424757
G1 X236.99 Y146.167 E11.05942
;WIDTH:0.444592
G1 X236.991 Y147.355 E11.09909
;WIDTH:0.419999
G1 X236.991 Y148.251 E11.12718
G1 X235.253 Y148.251 E11.18167
G1 X235.69 Y148.035 E11.19695
G1 X236.097 Y147.683 E11.21382
G1 X236.398 Y147.237 E11.23069
;WIDTH:0.444592
G1 X236.58 Y146.771 E11.24741
G1 X236.613 Y146.438 E11.25857
;WIDTH:0.440829
G1 X236.584 Y145.9 E11.27639
G1 X236.398 Y145.393 E11.29426
;WIDTH:0.419999
G1 X236.097 Y144.947 E11.31113
G1 X235.69 Y144.595 E11.328
G1 X235.206 Y144.36 E11.34488
G1 X234.624 Y144.259 E11.36339
G1 X234.141 Y144.296 E11.37857
G1 X233.633 Y144.472 E11.39544
G1 X233.187 Y144.773 E11.41231
G1 X232.835 Y145.18 E11.42918
G1 X232.6 Y145.664 E11.44604
G1 X232.498 Y146.192 E11.46291
G1 X232.536 Y146.729 E11.47978
G1 X232.712 Y147.237 E11.49665
G1 X233.014 Y147.683 E11.51353
G1 X233.467 Y148.061 E11.53204
G1 X233.857 Y148.251 E11.54564
G1 X66.143 Y148.251 E16.80418
G1 X66.58 Y148.035 E16.81947
G1 X66.987 Y147.683 E16.83634
G1 X67.288 Y147.237 E16.8532
G1 X67.464 Y146.729 E16.87007
G1 X67.502 Y146.192 E16.88694
G1 X67.4 Y145.664 E16.90381
G1 X67.165 Y145.18 E16.92068
G1 X66.813 Y144.773 E16.93754
G1 X66.367 Y144.472 E16.95441
G1 X65.835 Y144.293 E16.97201
G1 X65.291 Y144.262 E16.98908
G1 X64.794 Y144.36 E17.00498
G1 X64.31 Y144.595 E17.02185
G1 X63.903 Y144.947 E17.03872
G1 X63.602 Y145.393 E17.05559
;WIDTH:0.440829
G1 X63.416 Y145.9 E17.07346
G1 X63.387 Y146.192 E17.08316
;WIDTH:0.444594
G1 X63.42 Y146.771 E17.10252
G1 X63.602 Y147.237 E17.11924
;WIDTH:0.419999
G1 X63.904 Y147.683 E17.13612
G1 X64.357 Y148.061 E17.15464
G1 X64.747 Y148.251 E17.16823
G1 X63.009 Y148.251 E17.22272
G1 X63.009 Y147.693 E17.24021
;WIDTH:0.428653
G1 X63.01 Y146.463 E17.27967
;WIDTH:0.440829
G1 X63.009 Y145.275 E17.31896
;WIDTH:0.419999
G1 X63.009 Y55.063 E20.14749
;WIDTH:0.428654
G1 X63.01 Y53.833 E20.18695
;WIDTH:0.440828
G1 X63.009 Y52.645 E20.22625
;WIDTH:0.419999
G1 X63.009 Y51.809 E20.25246
G1 X62.632 Y51.372 F9000
G1 F1200
G1 X64.505 Y51.372 E20.31117
;WIDTH:0.469927
G1 X64.669 Y51.397 E20.31708
;WIDTH:0.519854
G1 X64.834 Y51.422 E20.32368
;WIDTH:0.569781
G1 X64.998 Y51.447 E20.33097
G1 X65.299 Y51.437 E20.34416
;WIDTH:0.565451
G1 X65.83 Y51.445 E20.36725
G1 X66.015 Y51.421 E20.37535
;WIDTH:0.516967
G1 X66.2 Y51.396 E20.38271
;WIDTH:0.468483
G1 X66.385 Y51.372 E20.38931
;WIDTH:0.419999
G1 X233.615 Y51.372 E25.63266
;WIDTH:0.469927
G1 X233.779 Y51.397 E25.63857
;WIDTH:0.519854
G1 X233.944 Y51.422 E25.64517
;WIDTH:0.569781
G1 X234.108 Y51.447 E25.65246
G1 X234.409 Y51.437 E25.66564
;WIDTH:0.565451
G1 X234.94 Y51.445 E25.68873
G1 X235.125 Y51.421 E25.69684
;WIDTH:0.516967
G1 X235.31 Y51.396 E25.70419
;WIDTH:0.468483
G1 X235.495 Y51.372 E25.7108
;WIDTH:0.419999
G1 X237.368 Y51.372 E25.76951
G1 X237.368 Y52.188 E25.7951
G1 X237.368 Y148.628 E28.81889
G1 X235.495 Y148.628 E28.8776
;WIDTH:0.469927
G1 X235.331 Y148.603 E28.88351
;WIDTH:0.519854
G1 X235.166 Y148.578 E28.89011
;WIDTH:0.569781
G1 X235.002 Y148.553 E28.8974
G1 X234.67 Y148.564 E28.91194
;WIDTH:0.566837
G1 X234.147 Y148.555 E28.93474
G1 X233.98 Y148.579 E28.9421
;WIDTH:0.517891
G1 X233.813 Y148.603 E28.94877
;WIDTH:0.468945
G1 X233.645 Y148.628 E28.95475
;WIDTH:0.419999
G1 X66.385 Y148.628 E34.19906
;WIDTH:0.469927
G1 X66.221 Y148.603 E34.20497
;WIDTH:0.519854
G1 X66.056 Y148.578 E34.21158
;WIDTH:0.569781
G1 X65.892 Y148.553 E34.21887
G1 X65.56 Y148.564 E34.2334
;WIDTH:0.566837
G1 X65.037 Y148.555 E34.2562
G1 X64.87 Y148.579 E34.26356
;WIDTH:0.517891
G1 X64.703 Y148.603 E34.27023
;WIDTH:0.468945
G1 X64.535 Y148.628 E34.27622
;WIDTH:0.419999
G1 X62.632 Y148.628 E34.33589
G1 X62.632 Y51.432 E37.3834
G1 X62.255 Y50.995 F9000
;TYPE:External perimeter
G1 F1200
G1 X237.745 Y50.995 E42.88575
G1 X237.745 Y149.005 E45.95878
G1 X62.255 Y149.005 E51.46114
G1 X62.255 Y51.055 E54.53229
G1 X62.649 Y51.063 F9000
G1 E52.53229 F2400
G92 E0
G1 X233.103 Y54.523 F9000
G1 E2 F2400
;TYPE:Perimeter
G1 F1200
G1 X233.06 Y54.463 E2.00232
G1 X232.91 Y54.049 E2.01611
G1 X232.872 Y53.611 E2.02991
G1 X232.948 Y53.178 E2.0437
G1 X233.134 Y52.779 E2.05749
G1 X233.417 Y52.443 E2.07128
;WIDTH:0.456931
G1 X233.725 Y52.243 E2.08392
;WIDTH:0.493863
G1 X234.034 Y52.044 E2.09769
;WIDTH:0.530351
G1 X234.107 Y52.006 E2.10106
;WIDTH:0.566838
G1 X234.181 Y51.967 E2.10467
G1 X234.591 Y51.94 E2.12257
;WIDTH:0.565451
G1 X234.913 Y51.966 E2.13659
G1 X235.095 Y52.065 E2.14563
;WIDTH:0.516967
G1 X235.278 Y52.165 E2.15382
;WIDTH:0.468483
G1 X235.461 Y52.264 E2.16118
;WIDTH:0.419999
G1 X235.797 Y52.547 E2.17497
G1 X236.05 Y52.907 E2.18876
G1 X236.2 Y53.321 E2.20255
G1 X236.238 Y53.759 E2.21634
G1 X236.162 Y54.192 E2.23014
G1 X235.976 Y54.591 E2.24393
G1 X235.693 Y54.927 E2.25772
G1 X235.333 Y55.18 E2.27151
G1 X234.919 Y55.33 E2.2853
G1 X234.481 Y55.368 E2.29909
G1 X234.048 Y55.292 E2.31288
G1 X233.689 Y55.126 E2.32527
G1 X233.313 Y54.823 E2.34042
G1 X233.137 Y54.573 E2.35002
G1 X233.409 Y54.318 F9000
;TYPE:External perimeter
G1 F1200
G1 X233.284 Y54 E2.36074
G1 X233.246 Y53.66 E2.37146
G1 X233.297 Y53.322 E2.38218
G1 X233.433 Y53.009 E2.3929
G1 X233.646 Y52.742 E2.40362
G1 X233.922 Y52.539 E2.41434
G1 X234.24 Y52.414 E2.42506
G1 X234.544 Y52.379 E2.43467
G1 X234.917 Y52.426 E2.44646
G1 X235.231 Y52.563 E2.45719
G1 X235.498 Y52.776 E2.46791
G1 X235.701 Y53.052 E2.47863
G1 X235.826 Y53.37 E2.48935
G1 X235.864 Y53.71 E2.50007
G1 X235.813 Y54.048 E2.51079
G1 X235.677 Y54.361 E2.52151
G1 X235.464 Y54.628 E2.53223
G1 X235.188 Y54.831 E2.54294
G1 X234.87 Y54.956 E2.55366
G1 X234.53 Y54.994 E2.56438
G1 X234.192 Y54.943 E2.5751
G1 X233.911 Y54.821 E2.58471
G1 X233.612 Y54.594 E2.5965
G1 X233.444 Y54.367 E2.60535
G1 X233.067 Y54.314 F9000
G1 E.60535 F2400
G92 E0
G1 X233.103 Y147.153 F9000
G1 E2 F2400
;TYPE:Perimeter
G1 F1200
G1 X233.06 Y147.093 E2.00232
G1 X232.91 Y146.679 E2.01611
G1 X232.872 Y146.241 E2.02991
G1 X232.948 Y145.808 E2.0437
G1 X233.134 Y145.409 E2.05749
G1 X233.417 Y145.073 E2.07128
G1 X233.777 Y144.82 E2.08507
G1 X234.191 Y144.67 E2.09886
G1 X234.584 Y144.634 E2.11125
G1 X235.062 Y144.708 E2.1264
G1 X235.461 Y144.894 E2.1402
G1 X235.797 Y145.177 E2.15399
G1 X236.05 Y145.537 E2.16779
G1 X236.2 Y145.951 E2.18158
G1 X236.243 Y146.315 E2.19308
G1 X236.162 Y146.822 E2.20918
G1 X235.976 Y147.221 E2.22297
G1 X235.693 Y147.557 E2.23676
;WIDTH:0.456931
G1 X235.385 Y147.757 E2.2494
;WIDTH:0.493863
G1 X235.076 Y147.956 E2.26317
;WIDTH:0.53035
G1 X235.003 Y147.994 E2.26654
;WIDTH:0.566837
G1 X234.929 Y148.033 E2.27015
G1 X234.473 Y148.062 E2.29006
G1 X234.181 Y148.033 E2.30284
G1 X234.017 Y147.941 E2.31103
;WIDTH:0.517891
G1 X233.853 Y147.848 E2.31846
;WIDTH:0.468945
G1 X233.689 Y147.756 E2.32512
;WIDTH:0.419999
G1 X233.313 Y147.453 E2.34027
G1 X233.137 Y147.203 E2.34987
G1 X233.409 Y146.948 F9000
;TYPE:External perimeter
G1 F1200
G1 X233.284 Y146.63 E2.36059
G1 X233.246 Y146.29 E2.37131
G1 X233.297 Y145.952 E2.38203
G1 X233.433 Y145.639 E2.39275
G1 X233.646 Y145.372 E2.40347
G1 X233.922 Y145.169 E2.41419
G1 X234.24 Y145.044 E2.42491
G1 X234.544 Y145.009 E2.43452
G1 X234.917 Y145.056 E2.44631
G1 X235.231 Y145.193 E2.45704
G1 X235.498 Y145.406 E2.46776
G1 X235.701 Y145.682 E2.47848
G1 X235.826 Y146 E2.4892
G1 X235.866 Y146.315 E2.49915
G1 X235.813 Y146.678 E2.51065
G1 X235.677 Y146.991 E2.52137
G1 X235.464 Y147.258 E2.53208
G1 X235.188 Y147.461 E2.5428
G1 X234.87 Y147.586 E2.55352
G1 X234.53 Y147.624 E2.56424
G1 X234.192 Y147.573 E2.57496
G1 X233.911 Y147.451 E2.58457
G1 X233.612 Y147.224 E2.59636
G1 X233.444 Y146.997 E2.60521
G1 X233.067 Y146.944 F9000
G1 E.60521 F2400
G92 E0
G1 X66.283 Y144.863 F9000
G1 E2 F2400
;TYPE:Perimeter
G1 F1200
G1 X66.351 Y144.894 E2.00232
G1 X66.687 Y145.177 E2.01611
G1 X66.94 Y145.537 E2.0299
G1 X67.09 Y145.951 E2.0437
G1 X67.133 Y146.315 E2.0552
G1 X67.052 Y146.822 E2.0713
G1 X66.866 Y147.221 E2.08509
G1 X66.583 Y147.557 E2.09888
;WIDTH:0.456931
G1 X66.275 Y147.757 E2.11152
;WIDTH:0.493863
G1 X65.966 Y147.956 E2.12529
;WIDTH:0.53035
G1 X65.893 Y147.994 E2.12866
;WIDTH:0.566837
G1 X65.819 Y148.033 E2.13227
G1 X65.363 Y148.062 E2.15218
G1 X65.071 Y148.033 E2.16496
G1 X64.907 Y147.941 E2.17315
;WIDTH:0.517891
G1 X64.743 Y147.848 E2.18058
;WIDTH:0.468945
G1 X64.579 Y147.756 E2.18724
;WIDTH:0.419999
G1 X64.203 Y147.453 E2.20239
G1 X63.95 Y147.093 E2.21619
G1 X63.8 Y146.679 E2.22998
G1 X63.762 Y146.241 E2.24378
G1 X63.838 Y145.808 E2.25757
G1 X64.024 Y145.409 E2.27136
G1 X64.307 Y145.073 E2.28515
G1 X64.667 Y144.82 E2.29894
G1 X65.081 Y144.67 E2.31273
G1 X65.474 Y144.634 E2.32512
G1 X65.952 Y144.708 E2.34027
G1 X66.229 Y144.837 E2.34987
G1 X66.121 Y145.193 F9000
;TYPE:External perimeter
G1 F1200
G1 X66.388 Y145.406 E2.36059
G1 X66.591 Y145.682 E2.37131
G1 X66.716 Y146 E2.38203
G1 X66.756 Y146.315 E2.39199
G1 X66.703 Y146.678 E2.40348
G1 X66.567 Y146.991 E2.4142
G1 X66.354 Y147.258 E2.42492
G1 X66.078 Y147.461 E2.43564
G1 X65.76 Y147.586 E2.44636
G1 X65.42 Y147.624 E2.45708
G1 X65.082 Y147.573 E2.4678
G1 X64.801 Y147.451 E2.47741
G1 X64.502 Y147.224 E2.4892
G1 X64.299 Y146.948 E2.49993
G1 X64.174 Y146.63 E2.51065
G1 X64.136 Y146.29 E2.52136
G1 X64.187 Y145.952 E2.53208
G1 X64.323 Y145.639 E2.5428
G1 X64.536 Y145.372 E2.55352
G1 X64.812 Y145.169 E2.56424
G1 X65.13 Y145.044 E2.57496
G1 X65.434 Y145.009 E2.58457
G1 X65.807 Y145.056 E2.59636
G1 X66.066 Y145.169 E2.60521
G1 X66.419 Y145.026 F9000
G1 E.60521 F2400
G92 E0
G1 X70.918 Y146.603 F9000
G1 E2 F2400
;TYPE:Perimeter
G1 F1200
G1 X70.881 Y146.436 E2.00535
G1 X70.881 Y53.564 E4.91731
G1 X70.97 Y53.164 E4.93013
G1 X71.279 Y52.794 E4.94525
G1 X71.661 Y52.635 E4.95822
G1 X71.824 Y52.621 E4.96335
G1 X228.176 Y52.621 E9.86568
G1 X228.721 Y52.794 E9.8836
G1 X229.03 Y53.164 E9.89873
G1 X229.119 Y53.564 E9.91155
G1 X229.119 Y146.436 E12.82351
G1 X229.03 Y146.836 E12.83633
G1 X228.721 Y147.206 E12.85145
G1 X228.339 Y147.365 E12.86442
G1 X228.176 Y147.379 E12.86955
G1 X71.824 Y147.379 E17.77188
G1 X71.279 Y147.206 E17.78981
G1 X70.97 Y146.836 E17.80493
G1 X70.931 Y146.661 E17.81052
G1 X71.465 Y146.861 F9000
G1 F1200
G1 X71.311 Y146.676 E17.81806
G1 X71.258 Y146.315 E17.8295
G1 X71.258 Y53.564 E20.73765
G1 X71.311 Y53.324 E20.74535
G1 X71.497 Y53.102 E20.75442
G1 X71.824 Y52.998 E20.76518
G1 X228.176 Y52.998 E25.6675
G1 X228.503 Y53.102 E25.67826
G1 X228.689 Y53.324 E25.68733
G1 X228.742 Y53.685 E25.69877
G1 X228.742 Y146.436 E28.60692
G1 X228.689 Y146.676 E28.61462
G1 X228.503 Y146.898 E28.62369
G1 X228.176 Y147.002 E28.63445
G1 X71.824 Y147.002 E33.53677
G1 X71.507 Y146.901 E33.54718
G1 X71.715 Y146.59 F9000
;TYPE:External perimeter
G1 F1200
G1 X71.635 Y146.436 E33.55261
G1 X71.635 Y53.564 E36.46457
G1 X71.715 Y53.41 E36.47
G1 X71.824 Y53.375 E36.47359
G1 X228.176 Y53.375 E41.37592
G1 X228.285 Y53.41 E41.3795
G1 X228.365 Y53.564 E41.38493
G1 X228.365 Y146.436 E44.29689
G1 X228.285 Y146.59 E44.30232
G1 X228.176 Y146.625 E44.30591
G1 X71.824 Y146.625 E49.20824
G1 X71.772 Y146.609 E49.20994
G1 X71.55 Y146.645 F9000
G1 E47.20994 F2400
G92 E0
G1 X67.121 Y53.758 F9000
G1 E2 F2400
;TYPE:Perimeter
G1 F1200
G1 X67.052 Y54.192 E2.01377
G1 X66.866 Y54.591 E2.02756
G1 X66.583 Y54.927 E2.04135
G1 X66.223 Y55.18 E2.05514
G1 X65.809 Y55.33 E2.06893
G1 X65.371 Y55.368 E2.08272
G1 X64.938 Y55.292 E2.09651
G1 X64.579 Y55.126 E2.10891
G1 X64.203 Y54.823 E2.12406
G1 X63.95 Y54.463 E2.13786
G1 X63.8 Y54.049 E2.15165
G1 X63.762 Y53.611 E2.16544
G1 X63.838 Y53.178 E2.17923
G1 X64.024 Y52.779 E2.19302
G1 X64.307 Y52.443 E2.20681
;WIDTH:0.456931
G1 X64.615 Y52.243 E2.21945
;WIDTH:0.493863
G1 X64.924 Y52.044 E2.23322
;WIDTH:0.530351
G1 X64.997 Y52.006 E2.23659
;WIDTH:0.566838
G1 X65.071 Y51.967 E2.2402
G1 X65.481 Y51.94 E2.2581
;WIDTH:0.565451
G1 X65.803 Y51.966 E2.27213
G1 X65.985 Y52.065 E2.28116
;WIDTH:0.516967
G1 X66.168 Y52.165 E2.28936
;WIDTH:0.468483
G1 X66.351 Y52.264 E2.29671
;WIDTH:0.419999
G1 X66.687 Y52.547 E2.3105
G1 X66.866 Y52.779 E2.31969
G1 X67.052 Y53.178 E2.33348
G1 X67.131 Y53.699 E2.35001
G1 X66.754 Y53.71 F9000
;TYPE:External perimeter
G1 F1200
G1 X66.703 Y54.048 E2.36073
G1 X66.567 Y54.361 E2.37145
G1 X66.354 Y54.628 E2.38217
G1 X66.078 Y54.831 E2.39289
G1 X65.76 Y54.956 E2.40361
G1 X65.42 Y54.994 E2.41433
G1 X65.082 Y54.943 E2.42505
G1 X64.801 Y54.821 E2.43466
G1 X64.502 Y54.594 E2.44645
G1 X64.299 Y54.318 E2.45718
G1 X64.174 Y54 E2.4679
G1 X64.136 Y53.66 E2.47862
G1 X64.187 Y53.322 E2.48934
G1 X64.323 Y53.009 E2.50006
G1 X64.536 Y52.742 E2.51078
G1 X64.812 Y52.539 E2.5215
G1 X65.13 Y52.414 E2.53222
G1 X65.434 Y52.379 E2.54182
G1 X65.807 Y52.426 E2.55362
G1 X66.121 Y52.563 E2.56434
G1 X66.388 Y52.776 E2.57506
G1 X66.567 Y53.009 E2.58425
G1 X66.716 Y53.37 E2.5965
G1 X66.748 Y53.65 E2.60534
G1 X67.048 Y53.884 F9000
G1 E.60534 F2400
G92 E0
G1 X63.314 Y51.87 F9000
G1 E2 F2400
;TYPE:Solid infill
;WIDTH:0.495415
G1 F1200
G1 X63.635 Y52.191 E2.01708
G1 X63.491 Y52.378 E2.02598
G1 X63.378 Y52.574 E2.03447
G1 X63.136 Y52.332 E2.04733
G1 E.04733 F2400
G92 E0
G1 X63.13 Y147.762 F9000
G1 E2 F2400
G1 F1200
G1 X63.498 Y148.13 E2.0196
