; generated by PrusaSlicer 2.5.0+win64 on 2022-12-21 at 23:07:20 UTC

; 

; external perimeters extrusion width = 0.42mm
; perimeters extrusion width = 0.44mm
; infill extrusion width = 0.44mm
; solid infill extrusion width = 0.44mm
; top infill extrusion width = 0.40mm
; first layer extrusion width = 0.42mm

M107
M190 S90 ; set bed temperature and wait for it to be reached
M104 S245 ; set temperature
;TYPE:Custom
G28 ; home all axes
G1 Z5 F5000 ; lift nozzle
M109 S245 ; set temperature and wait for it to be reached
G21 ; set units to millimeters
G90 ; use absolute coordinates
M82 ; use absolute distances for extrusion
G92 E0
; Filament gcode
M107
;LAYER_CHANGE
;Z:0.2
;HEIGHT:0.2
G1 Z.2 F9000
G1 E-2 F2400
G92 E0
G1 X145.21 Y97.011 F9000
G1 E2 F2400
M204 S500
;TYPE:Skirt/Brim
;WIDTH:0.42
G1 F1200
G1 X146.071 Y95.946 E2.04295
G1 X146.92 Y95.268 E2.07702
G1 X147.856 Y94.777 E2.11016
G1 X148.946 Y94.454 E2.14581
G1 X150.198 Y94.358 E2.18516
G1 X151.281 Y94.501 E2.21942
G1 X152.319 Y94.852 E2.2538
G1 X153.292 Y95.413 E2.28901
G1 X154.111 Y96.13 E2.32313
G1 X154.792 Y97.015 E2.35813
G1 X155.278 Y97.995 E2.39243
G1 X155.541 Y98.918 E2.42254
G1 X155.644 Y99.852 E2.45198
G1 X155.568 Y100.934 E2.48602
G1 X155.257 Y102.06 E2.52262
G1 X154.78 Y103.005 E2.55582
G1 X154.094 Y103.888 E2.59088
G1 X153.251 Y104.616 E2.62579
G1 X152.289 Y105.161 E2.66046
G1 X151.243 Y105.507 E2.69502
G1 X150.181 Y105.643 E2.72859
G1 X149.221 Y105.58 E2.75875
G1 X148.051 Y105.276 E2.79666
G1 X146.962 Y104.734 E2.8348
G1 X146.267 Y104.207 E2.86216
G1 X145.5 Y103.384 E2.89742
G1 X144.913 Y102.447 E2.93207
G1 X144.497 Y101.264 E2.9714
G1 X144.356 Y100.15 E3.00661
G1 X144.43 Y99.078 E3.04028
G1 X144.715 Y98.015 E3.07481
G1 X145.183 Y97.065 E3.10801
G1 X145.52 Y97.231 F9000
G1 F1200
G1 X146.332 Y96.217 E3.14874
G1 X147.128 Y95.583 E3.18065
G1 X148 Y95.125 E3.21155
G1 X149.019 Y94.824 E3.24485
G1 X150.185 Y94.734 E3.28153
G1 X151.194 Y94.868 E3.31345
G1 X152.163 Y95.196 E3.3455
G1 X153.072 Y95.719 E3.3784
G1 X153.835 Y96.387 E3.4102
G1 X154.472 Y97.214 E3.44291
G1 X154.925 Y98.127 E3.47487
G1 X155.171 Y98.992 E3.50307
G1 X155.267 Y99.863 E3.53055
G1 X155.196 Y100.872 E3.56227
G1 X154.906 Y101.921 E3.59638
G1 X154.46 Y102.806 E3.62746
G1 X153.819 Y103.63 E3.66017
G1 X153.033 Y104.308 E3.69275
G1 X152.135 Y104.817 E3.72511
G1 X151.158 Y105.14 E3.75736
G1 X150.169 Y105.266 E3.78864
G1 X149.183 Y105.192 E3.81964
G1 X148.179 Y104.922 E3.85222
G1 X147.249 Y104.47 E3.88465
G1 X146.515 Y103.923 E3.91335
G1 X145.796 Y103.151 E3.94643
G1 X145.252 Y102.28 E3.97862
G1 X144.865 Y101.181 E4.01515
G1 X144.733 Y100.138 E4.04813
G1 X144.801 Y99.142 E4.07943
G1 X145.068 Y98.145 E4.11177
G1 X145.493 Y97.285 E4.14186
G1 X145.83 Y97.451 F9000
G1 F1200
G1 X146.593 Y96.489 E4.18037
G1 X147.317 Y95.91 E4.20943
G1 X148.145 Y95.474 E4.23877
G1 X149.091 Y95.194 E4.26972
G1 X150.173 Y95.111 E4.30373
G1 X151.108 Y95.235 E4.33332
G1 X152.006 Y95.539 E4.36304
G1 X152.852 Y96.025 E4.39362
G1 X153.56 Y96.645 E4.42311
G1 X154.152 Y97.413 E4.45352
G1 X154.572 Y98.259 E4.48315
G1 X154.801 Y99.066 E4.50944
G1 X154.89 Y99.875 E4.53496
G1 X154.824 Y100.81 E4.56436
G1 X154.556 Y101.782 E4.59597
G1 X154.14 Y102.607 E4.62493
G1 X153.545 Y103.371 E4.65531
G1 X152.814 Y104.001 E4.68555
G1 X151.98 Y104.473 E4.71559
G1 X151.074 Y104.773 E4.74553
G1 X150.157 Y104.889 E4.77452
G1 X149.247 Y104.82 E4.80313
G1 X148.308 Y104.568 E4.83361
G1 X147.448 Y104.149 E4.86358
G1 X146.763 Y103.639 E4.89037
G1 X146 Y102.794 E4.92608
G1 X145.59 Y102.114 E4.95099
G1 X145.233 Y101.098 E4.98473
G1 X145.11 Y100.126 E5.01546
G1 X145.173 Y99.205 E5.04441
G1 X145.422 Y98.276 E5.07456
G1 X145.803 Y97.505 E5.10152
G1 X146.14 Y97.672 F9000
G1 F1200
G1 X146.171 Y97.607 E5.10377
G1 X146.855 Y96.761 E5.13787
G1 X147.523 Y96.226 E5.16472
G1 X148.289 Y95.822 E5.19187
G1 X149.164 Y95.564 E5.22047
G1 X150.16 Y95.488 E5.2518
G1 X151.022 Y95.602 E5.27906
G1 X151.85 Y95.882 E5.30645
G1 X152.631 Y96.331 E5.33472
G1 X153.284 Y96.902 E5.3619
G1 X153.831 Y97.612 E5.39
G1 X154.219 Y98.392 E5.41731
G1 X154.432 Y99.139 E5.44168
G1 X154.513 Y99.886 E5.46524
G1 X154.452 Y100.748 E5.49233
G1 X154.205 Y101.643 E5.52144
G1 X153.819 Y102.407 E5.54828
G1 X153.27 Y103.113 E5.57631
G1 X152.596 Y103.694 E5.60423
G1 X151.826 Y104.129 E5.63195
G1 X150.989 Y104.405 E5.65959
G1 X150.144 Y104.512 E5.68628
G1 X149.311 Y104.448 E5.71249
G1 X148.437 Y104.213 E5.74088
G1 X147.647 Y103.829 E5.7684
G1 X146.99 Y103.336 E5.79415
G1 X146.305 Y102.573 E5.8263
G1 X145.928 Y101.947 E5.84924
G1 X145.601 Y101.015 E5.88019
G1 X145.487 Y100.114 E5.90868
G1 X145.545 Y99.268 E5.93526
G1 X145.776 Y98.407 E5.96322
G1 X146.113 Y97.725 E5.98706
G1 X146.449 Y97.892 F9000
G1 F1200
G1 X146.492 Y97.806 E5.99006
G1 X147.116 Y97.033 E6.02122
G1 X147.729 Y96.541 E6.04586
G1 X148.433 Y96.17 E6.07081
G1 X149.236 Y95.934 E6.09706
G1 X150.148 Y95.865 E6.12572
G1 X150.936 Y95.97 E6.15065
G1 X151.694 Y96.225 E6.17571
G1 X152.411 Y96.637 E6.20166
G1 X153.008 Y97.159 E6.22653
G1 X153.511 Y97.811 E6.25233
G1 X153.865 Y98.524 E6.27731
G1 X154.062 Y99.213 E6.29976
G1 X154.136 Y99.898 E6.32137
G1 X154.08 Y100.686 E6.34614
G1 X153.854 Y101.504 E6.37275
G1 X153.499 Y102.208 E6.39748
G1 X152.996 Y102.854 E6.42317
G1 X152.377 Y103.387 E6.44875
G1 X151.672 Y103.785 E6.47416
G1 X150.904 Y104.038 E6.49948
G1 X150.132 Y104.136 E6.52388
G1 X149.375 Y104.077 E6.54769
G1 X148.53 Y103.846 E6.57518
G1 X147.737 Y103.439 E6.60312
G1 X147.102 Y102.924 E6.62873
G1 X146.611 Y102.353 E6.65237
G1 X146.266 Y101.78 E6.67333
G1 X145.969 Y100.933 E6.70148
G1 X145.864 Y100.102 E6.72773
G1 X145.917 Y99.331 E6.75196
G1 X146.13 Y98.537 E6.77773
G1 X146.423 Y97.946 E6.79843
; printing object Case_Parafuso_M2_6mm.stl id:0 copy 0
G1 E4.79843 F2400
G92 E0
G1 X150.153 Y99.967 F9000
G1 E2 F2400
;TYPE:Perimeter
;WIDTH:0.352481
G1 F1200
G1 X150.06 Y99.852 E2.00381
G1 X149.912 Y99.872 E2.00765
G1 X149.84 Y100 E2.01143
G1 X149.914 Y100.13 E2.01528
G1 X150.049 Y100.152 E2.01881
G1 X150.147 Y100.052 E2.02242
G1 X150.153 Y99.967 E2.02461
G1 X149.804 Y100.47 F9000
;TYPE:External perimeter
;WIDTH:0.419999
G1 F1200
G1 X149.639 Y100.36 E2.03085
G1 X149.529 Y100.194 E2.03709
G1 X149.49 Y99.999 E2.04331
G1 X149.529 Y99.805 E2.04953
G1 X149.638 Y99.642 E2.05567
G1 X149.809 Y99.528 E2.06213
G1 X150.01 Y99.491 E2.06853
G1 X150.274 Y99.582 E2.07727
G1 X150.415 Y99.721 E2.0835
G1 X150.49 Y99.9 E2.08956
G1 X150.509 Y99.998 E2.09272
G1 X150.464 Y100.21 E2.09951
G1 X150.288 Y100.406 E2.10777
G1 X150.088 Y100.494 E2.11462
G1 X149.864 Y100.475 E2.12166
G1 X149.77 Y100.274 F9000
; stop printing object Case_Parafuso_M2_6mm.stl id:0 copy 0
;LAYER_CHANGE
;Z:0.32
;HEIGHT:0.12
G1 Z.32 F9000
G1 E.12166 F2400
G92 E0
G1 X148.584 Y105.415 F9000
G1 E2 F2400
;TYPE:Skirt/Brim
;WIDTH:0.42
G1 X148.051 Y105.276 E2.01084
G1 X146.962 Y104.734 E2.03477
G1 X146.267 Y104.207 E2.05193
G1 X145.5 Y103.384 E2.07405
G1 X144.913 Y102.447 E2.09579
G1 X144.497 Y101.264 E2.12046
G1 X144.356 Y100.15 E2.14255
G1 X144.43 Y99.078 E2.16367
G1 X144.715 Y98.015 E2.18533
G1 X145.21 Y97.011 E2.20734
G1 X146.071 Y95.946 E2.23428
G1 X146.92 Y95.268 E2.25565
G1 X147.856 Y94.777 E2.27644
G1 X148.946 Y94.454 E2.29881
G1 X150.198 Y94.358 E2.32349
G1 X151.281 Y94.501 E2.34498
G1 X152.319 Y94.852 E2.36655
G1 X153.292 Y95.413 E2.38864
G1 X154.111 Y96.13 E2.41004
G1 X154.792 Y97.015 E2.432
G1 X155.278 Y97.995 E2.45351
G1 X155.541 Y98.918 E2.47241
G1 X155.644 Y99.852 E2.49087
G1 X155.568 Y100.934 E2.51222
G1 X155.257 Y102.06 E2.53519
G1 X154.78 Y103.005 E2.55601
G1 X154.094 Y103.888 E2.578
G1 X153.251 Y104.616 E2.5999
G1 X152.289 Y105.161 E2.62165
G1 X151.243 Y105.507 E2.64333
G1 X150.181 Y105.643 E2.66439
G1 X149.221 Y105.58 E2.68331
G1 X148.642 Y105.43 E2.69508
G1 X148.738 Y105.072 F9000
G1 F2400
G1 X148.179 Y104.922 E2.70646
G1 X147.249 Y104.47 E2.7268
G1 X146.515 Y103.923 E2.74481
G1 X145.796 Y103.151 E2.76556
G1 X145.252 Y102.28 E2.78575
G1 X144.865 Y101.181 E2.80867
G1 X144.733 Y100.138 E2.82935
G1 X144.801 Y99.142 E2.84899
G1 X145.068 Y98.145 E2.86928
G1 X145.53 Y97.21 E2.8898
G1 X146.332 Y96.217 E2.9149
G1 X147.128 Y95.583 E2.93491
G1 X148 Y95.125 E2.95429
G1 X149.019 Y94.824 E2.97519
G1 X150.185 Y94.734 E2.99819
G1 X151.194 Y94.868 E3.01822
G1 X152.163 Y95.196 E3.03833
G1 X153.072 Y95.719 E3.05896
G1 X153.835 Y96.387 E3.07892
G1 X154.472 Y97.214 E3.09943
G1 X154.925 Y98.127 E3.11948
G1 X155.171 Y98.992 E3.13717
G1 X155.267 Y99.863 E3.15441
G1 X155.196 Y100.872 E3.17431
G1 X154.906 Y101.921 E3.19571
G1 X154.46 Y102.806 E3.2152
G1 X153.819 Y103.63 E3.23573
G1 X153.033 Y104.308 E3.25616
G1 X152.135 Y104.817 E3.27646
G1 X151.158 Y105.14 E3.29669
G1 X150.169 Y105.266 E3.31631
G1 X149.183 Y105.192 E3.33576
G1 X148.796 Y105.088 E3.34364
G1 X148.894 Y104.725 F9000
G1 F2400
G1 X148.308 Y104.568 E3.35556
G1 X147.448 Y104.149 E3.37437
G1 X146.763 Y103.639 E3.39117
G1 X146 Y102.794 E3.41357
G1 X145.59 Y102.114 E3.4292
G1 X145.233 Y101.098 E3.45036
G1 X145.11 Y100.126 E3.46964
G1 X145.173 Y99.205 E3.4878
G1 X145.422 Y98.276 E3.50671
G1 X145.851 Y97.409 E3.52574
G1 X146.593 Y96.489 E3.54899
G1 X147.317 Y95.91 E3.56722
G1 X148.145 Y95.474 E3.58562
G1 X149.091 Y95.194 E3.60504
G1 X150.173 Y95.111 E3.62637
G1 X151.108 Y95.235 E3.64494
G1 X152.006 Y95.539 E3.66358
G1 X152.852 Y96.025 E3.68277
G1 X153.56 Y96.645 E3.70127
G1 X154.152 Y97.413 E3.72034
G1 X154.572 Y98.259 E3.73893
G1 X154.801 Y99.066 E3.75542
G1 X154.89 Y99.875 E3.77143
G1 X154.824 Y100.81 E3.78987
G1 X154.556 Y101.782 E3.8097
G1 X154.14 Y102.607 E3.82787
G1 X153.545 Y103.371 E3.84693
G1 X152.814 Y104.001 E3.8659
G1 X151.98 Y104.473 E3.88474
G1 X151.074 Y104.773 E3.90353
G1 X150.157 Y104.889 E3.92171
G1 X149.247 Y104.82 E3.93966
G1 X148.952 Y104.741 E3.94567
G1 X149.049 Y104.378 F9000
G1 F2400
G1 X148.437 Y104.213 E3.95814
G1 X147.647 Y103.829 E3.97541
G1 X146.99 Y103.336 E3.99157
G1 X146.305 Y102.573 E4.01173
G1 X145.928 Y101.947 E4.02612
G1 X145.601 Y101.015 E4.04554
G1 X145.487 Y100.114 E4.06341
G1 X145.545 Y99.268 E4.08009
G1 X145.776 Y98.407 E4.09763
G1 X146.171 Y97.607 E4.11517
G1 X146.855 Y96.761 E4.13657
G1 X147.523 Y96.226 E4.15341
G1 X148.289 Y95.822 E4.17044
G1 X149.164 Y95.564 E4.18838
G1 X150.16 Y95.488 E4.20803
G1 X151.022 Y95.602 E4.22513
G1 X151.85 Y95.882 E4.24232
G1 X152.631 Y96.331 E4.26005
G1 X153.284 Y96.902 E4.2771
G1 X153.831 Y97.612 E4.29473
G1 X154.219 Y98.392 E4.31186
G1 X154.432 Y99.139 E4.32715
G1 X154.513 Y99.886 E4.34193
G1 X154.452 Y100.748 E4.35892
G1 X154.205 Y101.643 E4.37718
G1 X153.819 Y102.407 E4.39402
G1 X153.27 Y103.113 E4.41161
G1 X152.596 Y103.694 E4.42912
G1 X151.826 Y104.129 E4.44651
G1 X150.989 Y104.405 E4.46384
G1 X150.144 Y104.512 E4.48059
G1 X149.311 Y104.448 E4.49703
G1 X149.107 Y104.394 E4.50118
G1 X149.206 Y104.031 F9000
G1 F2400
G1 X148.53 Y103.846 E4.51498
G1 X147.737 Y103.439 E4.53251
G1 X147.102 Y102.924 E4.54858
G1 X146.611 Y102.353 E4.5634
G1 X146.266 Y101.78 E4.57655
G1 X145.969 Y100.933 E4.59422
G1 X145.864 Y100.102 E4.61068
G1 X145.917 Y99.331 E4.62588
G1 X146.13 Y98.537 E4.64205
G1 X146.492 Y97.806 E4.6581
G1 X147.116 Y97.033 E4.67765
G1 X147.729 Y96.541 E4.6931
G1 X148.433 Y96.17 E4.70875
G1 X149.236 Y95.934 E4.72522
G1 X150.148 Y95.865 E4.7432
G1 X150.936 Y95.97 E4.75883
G1 X151.694 Y96.225 E4.77456
G1 X152.411 Y96.637 E4.79084
G1 X153.008 Y97.159 E4.80644
G1 X153.511 Y97.811 E4.82262
G1 X153.865 Y98.524 E4.83829
G1 X154.062 Y99.213 E4.85238
G1 X154.136 Y99.898 E4.86593
G1 X154.08 Y100.686 E4.88147
G1 X153.854 Y101.504 E4.89817
G1 X153.499 Y102.208 E4.91368
G1 X152.996 Y102.854 E4.92979
G1 X152.377 Y103.387 E4.94584
G1 X151.672 Y103.785 E4.96178
G1 X150.904 Y104.038 E4.97767
G1 X150.132 Y104.136 E4.99297
G1 X149.375 Y104.077 E5.00791
G1 X149.264 Y104.046 E5.01017
; printing object Case_Parafuso_M2_6mm.stl id:0 copy 0
G1 E3.01017
G92 E0
G1 X149.726 Y100.438 F9000
G1 E2 F2400
;TYPE:External perimeter
;WIDTH:0.419999
G1 F1500
G1 X149.504 Y100.226 E2.00603
G1 X149.453 Y99.994 E2.01069
G1 X149.494 Y99.792 E2.01475
G1 X149.632 Y99.596 E2.01946
G1 X149.801 Y99.491 E2.02337
G1 X150.029 Y99.454 E2.02792
G1 X150.284 Y99.545 E2.03325
G1 X150.445 Y99.701 E2.03766
G1 X150.526 Y99.893 E2.04177
G1 X150.524 Y100.105 E2.04593
G1 X150.442 Y100.307 E2.05021
G1 X150.276 Y100.461 E2.05468
G1 X150.028 Y100.545 E2.05982
G1 X149.782 Y100.458 E2.06495
G1 X149.725 Y100.131 F9000
; stop printing object Case_Parafuso_M2_6mm.stl id:0 copy 0
;LAYER_CHANGE
;Z:0.44
;HEIGHT:0.12
G1 Z.44 F9000
; printing object Case_Parafuso_M2_6mm.stl id:0 copy 0
G1 X150.196 Y99.979
;TYPE:Perimeter
;WIDTH:0.365484
G1 F2400
G1 X150.139 Y99.86 E2.06719
G1 X150.042 Y99.814 E2.06902
G1 X149.883 Y99.918 E2.07224
;WIDTH:0.365163
G1 X149.806 Y100.06 E2.07497
G1 X149.889 Y100.154 E2.0771
G1 X150.051 Y100.195 E2.07993
;WIDTH:0.365484
G1 X150.174 Y100.1 E2.08256
G1 X150.196 Y99.979 E2.08464
G1 X149.427 Y100.001 F9000
;TYPE:External perimeter
;WIDTH:0.419999
G1 F1500
G1 X149.466 Y99.895 E2.08685
G1 X149.68 Y99.584 E2.09429
G1 X149.787 Y99.53 E2.09665
G1 X150.089 Y99.434 E2.10288
G1 X150.356 Y99.561 E2.10869
G1 X150.501 Y99.74 E2.11322
G1 X150.562 Y99.956 E2.11764
G1 X150.57 Y100.076 E2.12
G1 X150.498 Y100.287 E2.12439
G1 X150.349 Y100.457 E2.12885
G1 X150.147 Y100.556 E2.13325
G1 X149.934 Y100.57 E2.13745
G1 X149.644 Y100.45 E2.14363
G1 X149.496 Y100.281 E2.14806
G1 X149.441 Y100.059 E2.15255
G1 X149.529 Y99.953 F9000
; stop printing object Case_Parafuso_M2_6mm.stl id:0 copy 0
;LAYER_CHANGE
;Z:0.56
;HEIGHT:0.12
G1 Z.56 F9000
; printing object Case_Parafuso_M2_6mm.stl id:0 copy 0
G1 X150.148 Y100.153
;TYPE:Perimeter
;WIDTH:0.381429
G1 F1500
G1 X149.999 Y100.221 E2.15546
G1 X149.844 Y100.156 E2.15845
;WIDTH:0.382403
G1 X149.78 Y99.998 E2.16148
G1 X149.829 Y99.867 E2.16396
G1 X149.955 Y99.788 E2.16661
G1 X150.066 Y99.861 E2.16897
G1 X150.149 Y100.008 E2.17198
;WIDTH:0.381429
G1 X150.149 Y100.093 E2.17349
G1 X150.42 Y100.431 F9000
;TYPE:External perimeter
;WIDTH:0.419999
G1 F1500
G1 X150.23 Y100.558 E2.17799
G1 X150 Y100.603 E2.1826
G1 X149.775 Y100.56 E2.18709
G1 X149.574 Y100.427 E2.19185
G1 X149.442 Y100.228 E2.19654
G1 X149.397 Y99.996 E2.20119
G1 X149.443 Y99.768 E2.20577
G1 X149.575 Y99.572 E2.21041
G1 X149.771 Y99.442 E2.21504
G1 X149.99 Y99.399 E2.21943
G1 X150.191 Y99.461 E2.22357
G1 X150.412 Y99.672 E2.22958
G1 X150.522 Y99.965 E2.23573
G1 X150.52 Y100.204 E2.24043
G1 X150.444 Y100.376 E2.24413
G1 X150.196 Y100.385 F9000
; stop printing object Case_Parafuso_M2_6mm.stl id:0 copy 0
;LAYER_CHANGE
;Z:0.68
;HEIGHT:0.12
G1 Z.68 F9000
; printing object Case_Parafuso_M2_6mm.stl id:0 copy 0
G1 X149.918 Y99.79
;TYPE:Perimeter
;WIDTH:0.394916
G1 F1500
G1 X149.972 Y99.767 E2.24522
G1 X150.119 Y99.794 E2.24796
G1 X150.229 Y99.934 E2.25125
G1 X150.237 Y99.998 E2.25245
G1 X150.072 Y100.123 E2.25625
G1 X149.86 Y100.107 E2.26018
G1 X149.758 Y100.014 E2.26272
G1 X149.83 Y99.827 E2.26641
G1 X149.863 Y99.813 E2.26706
G1 X149.759 Y99.417 F9000
;TYPE:External perimeter
;WIDTH:0.419999
G1 F1500
G1 X149.906 Y99.391 E2.27
G1 X150.136 Y99.393 E2.27451
G1 X150.333 Y99.478 E2.27873
G1 X150.509 Y99.648 E2.28355
G1 X150.604 Y99.862 E2.28816
G1 X150.607 Y100.092 E2.29268
G1 X150.459 Y100.344 E2.29844
G1 X150.292 Y100.438 E2.30222
G1 X150.001 Y100.526 E2.30818
G1 X149.623 Y100.418 E2.31593
G1 X149.461 Y100.264 E2.32032
G1 X149.382 Y100.078 E2.32429
G1 X149.418 Y99.756 E2.33066
G1 X149.556 Y99.551 E2.33554
G1 X149.709 Y99.45 E2.33914
G1 X149.876 Y99.509 F9000
; stop printing object Case_Parafuso_M2_6mm.stl id:0 copy 0
;LAYER_CHANGE
;Z:0.8
;HEIGHT:0.12
G1 Z.8 F9000
; printing object Case_Parafuso_M2_6mm.stl id:0 copy 0
G1 X150.256 Y99.97
;TYPE:Perimeter
;WIDTH:0.41041
G1 F1500
G1 X150.26 Y100.037 E2.34044
G1 X150.17 Y100.201 E2.34402
G1 X149.989 Y100.257 E2.34765
G1 X149.927 Y100.21 E2.34914
G1 X149.873 Y100.063 E2.35215
G1 X149.914 Y99.891 E2.35555
G1 X150.059 Y99.765 E2.35923
G1 X150.184 Y99.819 E2.36185
G1 X150.23 Y99.916 E2.3639
G1 X150.645 Y99.946 F9000
;TYPE:External perimeter
;WIDTH:0.419999
G1 F1500
G1 X150.653 Y100.091 E2.36674
